;FLAVOR:UltiGCode
;TIME:6508
;MATERIAL:10240
;MATERIAL2:0
;NOZZLE_DIAMETER:0.4
;Generated with Cura_SteamEngine 2.4.0

;LAYER_COUNT:138
;LAYER:0
M107
G10
G0 F4500 X127.817 Y87.024 Z0.27
;TYPE:SKIRT
G11
G1 F1800 X128.301 Y86.395 E0.075
G1 X128.845 Y85.818 E0.14994
G1 X129.444 Y85.298 E0.2249
G1 X130.093 Y84.841 E0.29991
G1 X130.785 Y84.452 E0.37493
G1 X131.512 Y84.134 E0.44991
G1 X132.267 Y83.891 E0.52487
G1 X133.043 Y83.725 E0.59986
G1 X133.832 Y83.639 E0.67486
G1 X134.297 Y83.625 E0.71882
G1 X138.295 Y83.625 E1.09663
G1 X139.087 Y83.665 E1.17157
G1 X139.872 Y83.784 E1.2466
G1 X140.64 Y83.982 E1.32155
G1 X141.385 Y84.257 E1.3966
G1 X142.098 Y84.604 E1.47153
G1 X142.773 Y85.022 E1.54656
G1 X143.402 Y85.505 E1.6215
G1 X143.979 Y86.05 E1.69651
G1 X144.499 Y86.649 E1.77147
G1 X144.955 Y87.298 E1.84642
G1 X145.344 Y87.99 E1.92144
G1 X145.662 Y88.717 E1.99643
G1 X145.905 Y89.473 E2.07147
G1 X146.07 Y90.249 E2.14644
G1 X146.156 Y91.037 E2.22135
G1 X146.17 Y91.497 E2.26484
G1 X146.171 Y94.497 E2.54834
G1 X146.131 Y95.29 E2.62337
G1 X146.012 Y96.074 E2.69831
G1 X145.814 Y96.843 E2.77335
G1 X145.541 Y97.587 E2.84824
G1 X145.193 Y98.301 E2.9233
G1 X144.776 Y98.976 E2.99828
G1 X144.292 Y99.605 E3.07328
G1 X143.748 Y100.182 E3.14822
G1 X143.149 Y100.702 E3.22318
G1 X142.5 Y101.159 E3.29819
G1 X141.808 Y101.548 E3.37321
G1 X141.081 Y101.866 E3.44819
G1 X140.326 Y102.109 E3.52315
G1 X139.55 Y102.275 E3.59814
G1 X138.761 Y102.361 E3.67314
G1 X138.296 Y102.375 E3.7171
G1 X134.298 Y102.375 E4.09491
G1 X133.506 Y102.335 E4.16985
G1 X132.721 Y102.216 E4.24488
G1 X131.953 Y102.018 E4.31983
G1 X131.208 Y101.743 E4.39488
G1 X130.495 Y101.396 E4.46981
G1 X129.82 Y100.978 E4.54484
G1 X129.191 Y100.495 E4.61978
G1 X128.614 Y99.95 E4.69479
G1 X128.094 Y99.351 E4.76975
G1 X127.638 Y98.702 E4.8447
G1 X127.249 Y98.01 E4.91972
G1 X126.931 Y97.283 E4.99471
G1 X126.688 Y96.527 E5.06975
G1 X126.523 Y95.751 E5.14472
G1 X126.437 Y94.963 E5.21963
G1 X126.423 Y94.503 E5.26312
G1 X126.422 Y91.503 E5.54662
G1 X126.462 Y90.71 E5.62165
G1 X126.581 Y89.926 E5.69659
G1 X126.779 Y89.157 E5.77163
G1 X127.052 Y88.413 E5.84652
G1 X127.4 Y87.699 E5.92158
G1 X127.817 Y87.024 E5.99656
G0 F4500 X128.165 Y87.138
G1 F1800 X128.647 Y86.53 E6.06988
G1 X129.189 Y85.974 E6.14326
G1 X129.785 Y85.478 E6.21653
G1 X130.429 Y85.045 E6.28987
G1 X131.113 Y84.682 E6.36304
G1 X131.832 Y84.39 E6.43638
G1 X132.577 Y84.174 E6.50968
G1 X133.34 Y84.036 E6.58295
G1 X134.297 Y83.975 E6.67357
G1 X138.295 Y83.975 E7.05138
G1 X139.07 Y84.015 E7.12472
G1 X139.836 Y84.134 E7.19797
G1 X140.586 Y84.332 E7.27128
G1 X141.312 Y84.606 E7.34461
G1 X142.005 Y84.953 E7.41785
G1 X142.659 Y85.37 E7.49114
G1 X143.267 Y85.852 E7.56446
G1 X143.822 Y86.394 E7.63777
G1 X144.319 Y86.99 E7.71111
G1 X144.751 Y87.634 E7.78439
G1 X145.114 Y88.319 E7.85765
G1 X145.406 Y89.038 E7.93098
G1 X145.621 Y89.783 E8.00426
G1 X145.759 Y90.546 E8.07753
G1 X145.82 Y91.497 E8.16759
G1 X145.821 Y94.497 E8.45109
G1 X145.781 Y95.272 E8.52442
G1 X145.662 Y96.039 E8.59777
G1 X145.465 Y96.789 E8.67105
G1 X145.191 Y97.514 E8.74429
G1 X144.844 Y98.208 E8.81762
G1 X144.428 Y98.862 E8.89086
G1 X143.946 Y99.47 E8.96418
G1 X143.404 Y100.026 E9.03756
G1 X142.808 Y100.522 E9.11083
G1 X142.164 Y100.955 E9.18417
G1 X141.48 Y101.318 E9.25735
G1 X140.761 Y101.61 E9.33068
G1 X140.016 Y101.826 E9.40398
G1 X139.253 Y101.964 E9.47726
G1 X138.296 Y102.025 E9.56788
G1 X134.298 Y102.025 E9.94569
G1 X133.523 Y101.985 E10.01902
G1 X132.757 Y101.866 E10.09228
G1 X132.007 Y101.668 E10.16558
G1 X131.281 Y101.394 E10.23891
G1 X130.588 Y101.047 E10.31215
G1 X129.934 Y100.63 E10.38545
G1 X129.326 Y100.148 E10.45877
G1 X128.771 Y99.606 E10.53208
G1 X128.274 Y99.01 E10.60541
G1 X127.842 Y98.366 E10.67869
G1 X127.479 Y97.681 E10.75195
G1 X127.187 Y96.962 E10.82529
G1 X126.972 Y96.217 E10.89857
G1 X126.834 Y95.454 E10.97184
G1 X126.773 Y94.503 E11.06189
G1 X126.772 Y91.503 E11.34539
G1 X126.812 Y90.728 E11.41873
G1 X126.931 Y89.961 E11.49208
G1 X127.128 Y89.211 E11.56536
G1 X127.402 Y88.486 E11.6386
G1 X127.749 Y87.792 E11.71192
G1 X128.165 Y87.138 E11.78517
G0 F4500 X128.513 Y87.254
G1 F1800 X128.993 Y86.668 E11.85675
G1 X129.532 Y86.136 E11.92832
G1 X130.124 Y85.663 E11.99993
G1 X130.763 Y85.256 E12.07152
G1 X131.44 Y84.918 E12.14303
G1 X132.15 Y84.654 E12.21461
G1 X132.884 Y84.466 E12.28621
G1 X133.633 Y84.356 E12.35775
G1 X134.297 Y84.325 E12.42057
G1 X138.295 Y84.325 E12.79838
G1 X139.051 Y84.365 E12.86992
G1 X139.799 Y84.484 E12.9415
G1 X140.53 Y84.682 E13.01307
G1 X141.237 Y84.956 E13.08472
G1 X141.91 Y85.302 E13.15623
G1 X142.543 Y85.718 E13.22781
G1 X143.129 Y86.198 E13.29939
G1 X143.661 Y86.737 E13.37096
G1 X144.133 Y87.329 E13.44251
G1 X144.54 Y87.968 E13.5141
G1 X144.878 Y88.646 E13.58569
G1 X145.142 Y89.355 E13.65719
G1 X145.33 Y90.089 E13.72879
G1 X145.439 Y90.838 E13.80032
G1 X145.47 Y91.498 E13.86276
G1 X145.471 Y94.498 E14.14626
G1 X145.431 Y95.254 E14.2178
G1 X145.312 Y96.002 E14.28937
G1 X145.115 Y96.733 E14.36092
G1 X144.841 Y97.439 E14.43248
G1 X144.495 Y98.113 E14.50408
G1 X144.08 Y98.746 E14.57561
G1 X143.6 Y99.332 E14.64719
G1 X143.061 Y99.864 E14.71876
G1 X142.469 Y100.337 E14.79036
G1 X141.83 Y100.744 E14.86196
G1 X141.153 Y101.082 E14.93346
G1 X140.443 Y101.346 E15.00505
G1 X139.709 Y101.534 E15.07665
G1 X138.96 Y101.644 E15.14819
G1 X138.296 Y101.675 E15.21101
G1 X134.298 Y101.675 E15.58882
G1 X133.542 Y101.635 E15.66036
G1 X132.794 Y101.516 E15.73193
G1 X132.063 Y101.318 E15.8035
G1 X131.356 Y101.044 E15.87516
G1 X130.683 Y100.698 E15.94667
G1 X130.05 Y100.282 E16.01825
G1 X129.464 Y99.802 E16.08983
G1 X128.932 Y99.263 E16.1614
G1 X128.46 Y98.671 E16.23295
G1 X128.053 Y98.032 E16.30454
G1 X127.715 Y97.354 E16.37613
G1 X127.451 Y96.645 E16.44763
G1 X127.263 Y95.911 E16.51923
G1 X127.154 Y95.162 E16.59076
G1 X127.123 Y94.502 E16.65319
G1 X127.122 Y91.502 E16.93669
G1 X127.162 Y90.746 E17.00824
G1 X127.281 Y89.998 E17.07981
G1 X127.478 Y89.267 E17.15135
G1 X127.752 Y88.561 E17.22292
G1 X128.098 Y87.887 E17.29452
G1 X128.513 Y87.254 E17.36604
G0 F4500 X128.861 Y87.373
G1 F1800 X129.339 Y86.81 E17.43584
G1 X129.875 Y86.302 E17.50562
G1 X130.462 Y85.854 E17.5754
G1 X131.095 Y85.473 E17.64522
G1 X131.765 Y85.162 E17.71503
G1 X132.465 Y84.926 E17.78483
G1 X133.186 Y84.766 E17.85463
G1 X133.92 Y84.685 E17.92441
G1 X134.297 Y84.675 E17.96005
G1 X138.295 Y84.675 E18.33786
G1 X139.033 Y84.715 E18.4077
G1 X139.761 Y84.834 E18.47741
G1 X140.473 Y85.032 E18.54725
G1 X141.159 Y85.305 E18.61702
G1 X141.812 Y85.651 E18.68686
G1 X142.424 Y86.065 E18.75668
G1 X142.987 Y86.543 E18.82647
G1 X143.495 Y87.079 E18.89626
G1 X143.942 Y87.667 E18.96606
G1 X144.323 Y88.3 E19.03588
G1 X144.634 Y88.97 E19.10568
G1 X144.87 Y89.67 E19.17549
G1 X145.029 Y90.391 E19.24526
G1 X145.11 Y91.126 E19.31514
G1 X145.12 Y91.498 E19.35031
G1 X145.121 Y94.498 E19.63381
G1 X145.081 Y95.235 E19.70356
G1 X144.962 Y95.964 E19.77336
G1 X144.765 Y96.676 E19.84317
G1 X144.492 Y97.362 E19.91294
G1 X144.146 Y98.015 E19.98278
G1 X143.732 Y98.627 E20.0526
G1 X143.254 Y99.19 E20.12239
G1 X142.718 Y99.698 E20.19218
G1 X142.131 Y100.146 E20.26196
G1 X141.498 Y100.527 E20.33178
G1 X140.828 Y100.838 E20.40158
G1 X140.128 Y101.074 E20.47139
G1 X139.407 Y101.234 E20.54118
G1 X138.673 Y101.315 E20.61097
G1 X138.296 Y101.325 E20.64661
G1 X134.298 Y101.325 E21.02442
G1 X133.56 Y101.285 E21.09426
G1 X132.832 Y101.166 E21.16397
G1 X132.12 Y100.968 E21.23381
G1 X131.434 Y100.695 E21.30358
G1 X130.781 Y100.349 E21.37342
G1 X130.169 Y99.935 E21.44324
G1 X129.606 Y99.457 E21.51303
G1 X129.098 Y98.921 E21.58282
G1 X128.651 Y98.333 E21.65262
G1 X128.27 Y97.7 E21.72244
G1 X127.959 Y97.03 E21.79224
G1 X127.723 Y96.33 E21.86205
G1 X127.564 Y95.609 E21.93182
G1 X127.483 Y94.874 E22.0017
G1 X127.473 Y94.502 E22.03686
G1 X127.472 Y91.502 E22.32036
G1 X127.512 Y90.765 E22.39011
G1 X127.631 Y90.036 E22.45992
G1 X127.828 Y89.324 E22.52973
G1 X128.101 Y88.638 E22.5995
G1 X128.447 Y87.985 E22.66934
G1 X128.861 Y87.373 E22.73916
G0 F4500 X129.208 Y87.496
G1 F1800 X129.684 Y86.956 E22.80718
G1 X130.217 Y86.472 E22.87522
G1 X130.8 Y86.051 E22.94318
G1 X131.426 Y85.696 E23.01118
G1 X132.087 Y85.414 E23.0791
G1 X132.776 Y85.206 E23.14711
G1 X133.484 Y85.076 E23.21513
G1 X134.297 Y85.025 E23.29211
G1 X138.295 Y85.025 E23.66992
G1 X139.013 Y85.065 E23.73788
G1 X139.723 Y85.184 E23.80591
G1 X140.415 Y85.382 E23.87393
G1 X141.08 Y85.655 E23.94186
G1 X141.712 Y86 E24.0099
G1 X142.301 Y86.413 E24.07788
G1 X142.84 Y86.889 E24.14584
G1 X143.324 Y87.421 E24.21381
G1 X143.745 Y88.004 E24.28176
G1 X144.099 Y88.631 E24.34981
G1 X144.382 Y89.292 E24.41775
G1 X144.589 Y89.981 E24.48574
G1 X144.719 Y90.689 E24.55376
G1 X144.77 Y91.498 E24.63037
G1 X144.771 Y94.498 E24.91387
G1 X144.731 Y95.216 E24.98182
G1 X144.612 Y95.926 E25.04985
G1 X144.415 Y96.618 E25.11785
G1 X144.142 Y97.283 E25.18578
G1 X143.797 Y97.915 E25.25382
G1 X143.385 Y98.504 E25.32175
G1 X142.909 Y99.044 E25.38977
G1 X142.376 Y99.528 E25.45781
G1 X141.793 Y99.949 E25.52577
G1 X141.167 Y100.304 E25.59377
G1 X140.506 Y100.586 E25.66168
G1 X139.817 Y100.794 E25.7297
G1 X139.109 Y100.924 E25.79772
G1 X138.296 Y100.975 E25.8747
G1 X134.298 Y100.975 E26.25251
G1 X133.58 Y100.935 E26.32047
G1 X132.87 Y100.816 E26.3885
G1 X132.178 Y100.618 E26.45652
G1 X131.513 Y100.345 E26.52445
G1 X130.881 Y100 E26.59249
G1 X130.292 Y99.587 E26.66047
G1 X129.753 Y99.111 E26.72843
G1 X129.269 Y98.579 E26.79639
G1 X128.848 Y97.996 E26.86435
G1 X128.494 Y97.369 E26.93239
G1 X128.211 Y96.708 E27.00034
G1 X128.004 Y96.019 E27.06833
G1 X127.874 Y95.311 E27.13635
G1 X127.823 Y94.502 E27.21295
G1 X127.822 Y91.502 E27.49645
G1 X127.862 Y90.784 E27.56441
G1 X127.981 Y90.074 E27.63244
G1 X128.178 Y89.382 E27.70043
G1 X128.451 Y88.717 E27.76837
G1 X128.796 Y88.085 E27.83641
G1 X129.208 Y87.496 E27.90433
G0 F4500 X129.556 Y87.623
G1 F1800 X130.029 Y87.107 E27.97048
G1 X130.558 Y86.649 E28.03661
G1 X131.135 Y86.254 E28.10269
G1 X131.754 Y85.928 E28.1688
G1 X132.406 Y85.674 E28.23492
G1 X133.083 Y85.497 E28.30105
G1 X133.776 Y85.397 E28.36722
G1 X134.297 Y85.375 E28.41649
G1 X138.295 Y85.375 E28.79431
G1 X138.994 Y85.415 E28.86047
G1 X139.683 Y85.534 E28.92654
G1 X140.354 Y85.732 E28.99266
G1 X140.999 Y86.004 E29.05881
G1 X141.608 Y86.348 E29.1249
G1 X142.174 Y86.76 E29.19106
G1 X142.689 Y87.233 E29.25714
G1 X143.147 Y87.762 E29.32326
G1 X143.542 Y88.34 E29.38942
G1 X143.868 Y88.959 E29.45553
G1 X144.122 Y89.611 E29.52166
G1 X144.299 Y90.288 E29.58778
G1 X144.398 Y90.981 E29.65394
G1 X144.42 Y91.498 E29.70284
G1 X144.421 Y94.498 E29.98634
G1 X144.381 Y95.197 E30.0525
G1 X144.262 Y95.886 E30.11858
G1 X144.065 Y96.557 E30.18466
G1 X143.793 Y97.202 E30.25081
G1 X143.449 Y97.811 E30.31691
G1 X143.037 Y98.377 E30.38307
G1 X142.564 Y98.893 E30.44922
G1 X142.035 Y99.351 E30.51534
G1 X141.458 Y99.746 E30.58142
G1 X140.839 Y100.072 E30.64753
G1 X140.187 Y100.326 E30.71365
G1 X139.51 Y100.503 E30.77978
G1 X138.817 Y100.603 E30.84595
G1 X138.296 Y100.625 E30.89523
G1 X134.298 Y100.625 E31.27304
G1 X133.599 Y100.585 E31.3392
G1 X132.91 Y100.466 E31.40528
G1 X132.239 Y100.268 E31.47139
G1 X131.594 Y99.996 E31.53754
G1 X130.985 Y99.652 E31.60364
G1 X130.419 Y99.24 E31.66979
G1 X129.904 Y98.767 E31.73587
G1 X129.446 Y98.238 E31.802
G1 X129.051 Y97.66 E31.86815
G1 X128.725 Y97.041 E31.93426
G1 X128.471 Y96.389 E32.00039
G1 X128.294 Y95.712 E32.06652
G1 X128.195 Y95.019 E32.13267
G1 X128.173 Y94.502 E32.18157
G1 X128.172 Y91.502 E32.46507
G1 X128.212 Y90.803 E32.53123
G1 X128.331 Y90.114 E32.59731
G1 X128.528 Y89.443 E32.66339
G1 X128.8 Y88.798 E32.72954
G1 X129.144 Y88.189 E32.79564
G1 X129.556 Y87.623 E32.8618
G0 F4500 X129.902 Y87.753
G1 F1800 X130.373 Y87.263 E32.92603
G1 X130.897 Y86.832 E32.99014
G1 X131.469 Y86.465 E33.05437
G1 X132.08 Y86.167 E33.11861
G1 X132.722 Y85.944 E33.18283
G1 X133.385 Y85.797 E33.24701
G1 X134.297 Y85.725 E33.33346
G1 X138.295 Y85.725 E33.71127
G1 X138.973 Y85.765 E33.77545
G1 X139.642 Y85.884 E33.83967
G1 X140.292 Y86.081 E33.90385
G1 X140.915 Y86.353 E33.96809
G1 X141.501 Y86.697 E34.0323
G1 X142.043 Y87.107 E34.09653
G1 X142.533 Y87.577 E34.16069
G1 X142.964 Y88.102 E34.22488
G1 X143.331 Y88.674 E34.2891
G1 X143.628 Y89.285 E34.3533
G1 X143.852 Y89.927 E34.41756
G1 X143.998 Y90.59 E34.48171
G1 X144.07 Y91.498 E34.56779
G1 X144.071 Y94.498 E34.85129
G1 X144.031 Y95.176 E34.91547
G1 X143.912 Y95.845 E34.97968
G1 X143.715 Y96.495 E35.04387
G1 X143.443 Y97.118 E35.10811
G1 X143.1 Y97.705 E35.17235
G1 X142.691 Y98.247 E35.23652
G1 X142.22 Y98.737 E35.30075
G1 X141.696 Y99.168 E35.36486
G1 X141.124 Y99.535 E35.42909
G1 X140.513 Y99.833 E35.49333
G1 X139.871 Y100.056 E35.55755
G1 X139.208 Y100.203 E35.62173
G1 X138.296 Y100.275 E35.70818
G1 X134.298 Y100.275 E36.08599
G1 X133.62 Y100.235 E36.15017
G1 X132.951 Y100.116 E36.21439
G1 X132.301 Y99.919 E36.27857
G1 X131.678 Y99.647 E36.34281
G1 X131.092 Y99.303 E36.40702
G1 X130.55 Y98.893 E36.47125
G1 X130.06 Y98.423 E36.53541
G1 X129.629 Y97.898 E36.5996
G1 X129.262 Y97.326 E36.66382
G1 X128.965 Y96.715 E36.72802
G1 X128.741 Y96.073 E36.79228
G1 X128.595 Y95.41 E36.85643
G1 X128.523 Y94.502 E36.94251
G1 X128.522 Y91.502 E37.22601
G1 X128.562 Y90.824 E37.29019
G1 X128.681 Y90.155 E37.3544
G1 X128.878 Y89.505 E37.41859
G1 X129.15 Y88.882 E37.48283
G1 X129.493 Y88.295 E37.54707
G1 X129.902 Y87.753 E37.61124
G0 F4500 X130.249 Y87.889
G1 F1800 X130.716 Y87.425 E37.67345
G1 X131.236 Y87.021 E37.73568
G1 X131.801 Y86.683 E37.7979
G1 X132.403 Y86.416 E37.86013
G1 X133.033 Y86.224 E37.92237
G1 X133.682 Y86.11 E37.98464
G1 X134.297 Y86.075 E38.04285
G1 X138.295 Y86.075 E38.42066
G1 X138.952 Y86.115 E38.48286
G1 X139.6 Y86.234 E38.54512
G1 X140.228 Y86.431 E38.60732
G1 X140.828 Y86.703 E38.66957
G1 X141.391 Y87.045 E38.73182
G1 X141.908 Y87.453 E38.79406
G1 X142.371 Y87.92 E38.85621
G1 X142.775 Y88.441 E38.91851
G1 X143.113 Y89.006 E38.98073
G1 X143.379 Y89.608 E39.04292
G1 X143.571 Y90.238 E39.10516
G1 X143.685 Y90.886 E39.16734
G1 X143.72 Y91.498 E39.22526
G1 X143.721 Y94.498 E39.50876
G1 X143.681 Y95.155 E39.57097
G1 X143.562 Y95.803 E39.63323
G1 X143.365 Y96.432 E39.69551
G1 X143.094 Y97.031 E39.75764
G1 X142.752 Y97.594 E39.81989
G1 X142.344 Y98.111 E39.88213
G1 X141.877 Y98.575 E39.94434
G1 X141.357 Y98.979 E40.00657
G1 X140.792 Y99.317 E40.06879
G1 X140.19 Y99.584 E40.13102
G1 X139.56 Y99.776 E40.19326
G1 X138.911 Y99.89 E40.25553
G1 X138.296 Y99.925 E40.31374
G1 X134.298 Y99.925 E40.69155
G1 X133.641 Y99.885 E40.75375
G1 X132.993 Y99.766 E40.81601
G1 X132.365 Y99.569 E40.87821
G1 X131.765 Y99.297 E40.94046
G1 X131.202 Y98.955 E41.00271
G1 X130.685 Y98.547 E41.06495
G1 X130.222 Y98.08 E41.1271
G1 X129.818 Y97.559 E41.1894
G1 X129.48 Y96.994 E41.25162
G1 X129.214 Y96.392 E41.31381
G1 X129.022 Y95.762 E41.37605
G1 X128.908 Y95.114 E41.43823
G1 X128.873 Y94.502 E41.49616
G1 X128.872 Y91.502 E41.77966
G1 X128.912 Y90.845 E41.84186
G1 X129.031 Y90.197 E41.90412
G1 X129.228 Y89.568 E41.9664
G1 X129.499 Y88.969 E42.02853
G1 X129.841 Y88.406 E42.09078
G1 X130.249 Y87.889 E42.15302
G0 F4500 X130.594 Y88.029
G1 F1800 X131.058 Y87.593 E42.21319
G1 X131.573 Y87.218 E42.27339
G1 X132.131 Y86.91 E42.33362
G1 X132.723 Y86.675 E42.39381
G1 X133.339 Y86.516 E42.45393
G1 X133.971 Y86.435 E42.51415
G1 X134.297 Y86.425 E42.54497
G1 X138.295 Y86.425 E42.92278
G1 X138.931 Y86.465 E42.983
G1 X139.556 Y86.584 E43.04312
G1 X140.162 Y86.781 E43.10334
G1 X140.738 Y87.052 E43.1635
G1 X141.276 Y87.393 E43.22369
G1 X141.767 Y87.799 E43.2839
