;FLAVOR:UltiGCode
;TIME:3224
;MATERIAL:4602
;MATERIAL2:0
;NOZZLE_DIAMETER:0.4
;Generated with Cura_SteamEngine 2.4.0

;LAYER_COUNT:179
;LAYER:0
M107
G10
G0 F4500 X80.505 Y76.393 Z0.27
;TYPE:SKIRT
G11
G1 F1800 X81.05 Y75.816 E0.075
G1 X81.649 Y75.296 E0.14996
G1 X82.298 Y74.84 E0.22492
G1 X82.99 Y74.451 E0.29994
G1 X83.717 Y74.133 E0.37492
G1 X84.473 Y73.89 E0.44997
G1 X85.249 Y73.725 E0.52494
G1 X86.037 Y73.639 E0.59985
G1 X86.5 Y73.625 E0.64362
G1 X136.5 Y73.625 E5.36862
G1 X137.292 Y73.665 E5.44356
G1 X138.077 Y73.784 E5.51859
G1 X138.845 Y73.982 E5.59354
G1 X139.59 Y74.257 E5.66858
G1 X140.303 Y74.604 E5.74352
G1 X140.978 Y75.022 E5.81855
G1 X141.607 Y75.505 E5.89349
G1 X142.184 Y76.05 E5.96849
G1 X142.704 Y76.649 E6.04345
G1 X143.16 Y77.298 E6.11841
G1 X143.549 Y77.99 E6.19343
G1 X143.867 Y78.717 E6.26841
G1 X144.11 Y79.473 E6.34345
G1 X144.275 Y80.249 E6.41843
G1 X144.361 Y81.037 E6.49333
G1 X144.375 Y81.5 E6.53711
G1 X144.375 Y141.5 E12.20711
G1 X144.335 Y142.292 E12.28205
G1 X144.216 Y143.077 E12.35708
G1 X144.018 Y143.845 E12.43203
G1 X143.743 Y144.59 E12.50707
G1 X143.396 Y145.303 E12.58201
G1 X142.978 Y145.978 E12.65703
G1 X142.495 Y146.607 E12.73198
G1 X141.95 Y147.184 E12.80698
G1 X141.351 Y147.704 E12.88194
G1 X140.702 Y148.16 E12.9569
G1 X140.01 Y148.549 E13.03191
G1 X139.283 Y148.867 E13.1069
G1 X138.527 Y149.11 E13.18194
G1 X137.751 Y149.275 E13.25691
G1 X136.963 Y149.361 E13.33182
G1 X136.5 Y149.375 E13.3756
G1 X86.5 Y149.375 E18.1006
G1 X85.708 Y149.335 E18.17554
G1 X84.923 Y149.216 E18.25057
G1 X84.155 Y149.018 E18.32551
G1 X83.41 Y148.743 E18.40056
G1 X82.697 Y148.396 E18.47549
G1 X82.022 Y147.978 E18.55052
G1 X81.393 Y147.495 E18.62547
G1 X80.816 Y146.95 E18.70047
G1 X80.296 Y146.351 E18.77543
G1 X79.84 Y145.702 E18.85039
G1 X79.451 Y145.01 E18.9254
G1 X79.133 Y144.283 E19.00039
G1 X78.89 Y143.527 E19.07543
G1 X78.725 Y142.751 E19.1504
G1 X78.639 Y141.963 E19.22531
G1 X78.625 Y141.5 E19.26908
G1 X78.625 Y81.5 E24.93908
G1 X78.665 Y80.708 E25.01402
G1 X78.784 Y79.923 E25.08905
G1 X78.982 Y79.155 E25.164
G1 X79.257 Y78.41 E25.23905
G1 X79.604 Y77.697 E25.31398
G1 X80.022 Y77.022 E25.38901
G1 X80.505 Y76.393 E25.46395
G0 F4500 X80.852 Y76.528
G1 F1800 X81.394 Y75.973 E25.53726
G1 X81.99 Y75.476 E25.6106
G1 X82.634 Y75.044 E25.68388
G1 X83.319 Y74.681 E25.75714
G1 X84.038 Y74.389 E25.83047
G1 X84.783 Y74.174 E25.90375
G1 X85.546 Y74.036 E25.97702
G1 X86.5 Y73.975 E26.06736
G1 X136.5 Y73.975 E30.79236
G1 X137.275 Y74.015 E30.8657
G1 X138.041 Y74.134 E30.93895
G1 X138.791 Y74.332 E31.01225
G1 X139.517 Y74.606 E31.08558
G1 X140.21 Y74.953 E31.15882
G1 X140.864 Y75.37 E31.23212
G1 X141.472 Y75.852 E31.30544
G1 X142.027 Y76.394 E31.37875
G1 X142.524 Y76.99 E31.45209
G1 X142.956 Y77.634 E31.52537
G1 X143.319 Y78.319 E31.59863
G1 X143.611 Y79.038 E31.67196
G1 X143.826 Y79.783 E31.74524
G1 X143.964 Y80.546 E31.81851
G1 X144.025 Y81.5 E31.90885
G1 X144.025 Y141.5 E37.57885
G1 X143.985 Y142.275 E37.65218
G1 X143.866 Y143.041 E37.72544
G1 X143.668 Y143.791 E37.79874
G1 X143.394 Y144.517 E37.87207
G1 X143.047 Y145.21 E37.94531
G1 X142.63 Y145.864 E38.01861
G1 X142.148 Y146.472 E38.09193
G1 X141.606 Y147.027 E38.16524
G1 X141.01 Y147.524 E38.23857
G1 X140.366 Y147.956 E38.31186
G1 X139.681 Y148.319 E38.38512
G1 X138.962 Y148.611 E38.45845
G1 X138.217 Y148.826 E38.53173
G1 X137.454 Y148.964 E38.605
G1 X136.5 Y149.025 E38.69534
G1 X86.5 Y149.025 E43.42034
G1 X85.725 Y148.985 E43.49367
G1 X84.959 Y148.866 E43.56693
G1 X84.209 Y148.668 E43.64023
G1 X83.483 Y148.394 E43.71356
G1 X82.79 Y148.047 E43.7868
G1 X82.136 Y147.63 E43.8601
G1 X81.528 Y147.148 E43.93342
G1 X80.973 Y146.606 E44.00673
G1 X80.476 Y146.01 E44.08006
G1 X80.044 Y145.366 E44.15334
G1 X79.681 Y144.681 E44.2266
G1 X79.389 Y143.962 E44.29994
G1 X79.174 Y143.217 E44.37321
G1 X79.036 Y142.454 E44.44649
G1 X78.975 Y141.5 E44.53683
G1 X78.975 Y81.5 E50.20683
G1 X79.015 Y80.725 E50.28016
G1 X79.134 Y79.959 E50.35342
G1 X79.332 Y79.209 E50.42672
G1 X79.606 Y78.483 E50.50005
G1 X79.953 Y77.79 E50.57329
G1 X80.37 Y77.136 E50.64659
G1 X80.852 Y76.528 E50.71991
G0 F4500 X81.198 Y76.666
G1 F1800 X81.737 Y76.134 E50.79147
G1 X82.329 Y75.662 E50.86302
G1 X82.968 Y75.255 E50.93462
G1 X83.646 Y74.917 E51.00621
G1 X84.355 Y74.653 E51.0777
G1 X85.089 Y74.465 E51.1493
G1 X85.838 Y74.356 E51.22083
G1 X86.5 Y74.325 E51.28346
G1 X136.5 Y74.325 E56.00846
G1 X137.256 Y74.365 E56.08
G1 X138.004 Y74.484 E56.15158
G1 X138.735 Y74.682 E56.22314
G1 X139.442 Y74.956 E56.2948
G1 X140.115 Y75.302 E56.36631
G1 X140.748 Y75.718 E56.43789
G1 X141.334 Y76.198 E56.50947
G1 X141.866 Y76.737 E56.58104
G1 X142.338 Y77.329 E56.65259
G1 X142.745 Y77.968 E56.72418
G1 X143.083 Y78.646 E56.79577
G1 X143.347 Y79.355 E56.86727
G1 X143.535 Y80.089 E56.93887
G1 X143.644 Y80.838 E57.0104
G1 X143.675 Y81.5 E57.07302
G1 X143.675 Y141.5 E62.74302
G1 X143.635 Y142.256 E62.81457
G1 X143.516 Y143.004 E62.88614
G1 X143.318 Y143.735 E62.95771
G1 X143.044 Y144.442 E63.02936
G1 X142.698 Y145.115 E63.10087
G1 X142.282 Y145.748 E63.17245
G1 X141.802 Y146.334 E63.24404
G1 X141.263 Y146.866 E63.3156
G1 X140.671 Y147.338 E63.38715
G1 X140.032 Y147.745 E63.45875
G1 X139.354 Y148.083 E63.53034
G1 X138.645 Y148.347 E63.60183
G1 X137.911 Y148.535 E63.67344
G1 X137.162 Y148.644 E63.74496
G1 X136.5 Y148.675 E63.80759
G1 X86.5 Y148.675 E68.53259
G1 X85.744 Y148.635 E68.60413
G1 X84.996 Y148.516 E68.67571
G1 X84.265 Y148.318 E68.74727
G1 X83.558 Y148.044 E68.81893
G1 X82.885 Y147.698 E68.89044
G1 X82.252 Y147.282 E68.96202
G1 X81.666 Y146.802 E69.0336
G1 X81.134 Y146.263 E69.10517
G1 X80.662 Y145.671 E69.17672
G1 X80.255 Y145.032 E69.24831
G1 X79.917 Y144.354 E69.3199
G1 X79.653 Y143.645 E69.3914
G1 X79.465 Y142.911 E69.463
G1 X79.356 Y142.162 E69.53453
G1 X79.325 Y141.5 E69.59715
G1 X79.325 Y81.5 E75.26715
G1 X79.365 Y80.744 E75.3387
G1 X79.484 Y79.996 E75.41027
G1 X79.682 Y79.265 E75.48184
G1 X79.956 Y78.558 E75.55349
G1 X80.302 Y77.885 E75.625
G1 X80.718 Y77.252 E75.69658
G1 X81.198 Y76.666 E75.76817
G0 F4500 X81.543 Y76.808
G1 F1800 X82.079 Y76.3 E75.83795
G1 X82.667 Y75.853 E75.90775
G1 X83.3 Y75.472 E75.97757
G1 X83.97 Y75.161 E76.04738
G1 X84.67 Y74.925 E76.11718
G1 X85.391 Y74.766 E76.18696
G1 X86.126 Y74.685 E76.25683
G1 X86.5 Y74.675 E76.29219
G1 X136.5 Y74.675 E81.01719
G1 X137.238 Y74.715 E81.08703
G1 X137.966 Y74.834 E81.15674
G1 X138.678 Y75.032 E81.22658
G1 X139.364 Y75.305 E81.29635
G1 X140.017 Y75.651 E81.36619
G1 X140.629 Y76.065 E81.43601
G1 X141.192 Y76.543 E81.5058
G1 X141.7 Y77.079 E81.57559
G1 X142.147 Y77.667 E81.64539
G1 X142.528 Y78.3 E81.71521
G1 X142.839 Y78.97 E81.78501
G1 X143.075 Y79.67 E81.85482
G1 X143.234 Y80.391 E81.92459
G1 X143.315 Y81.126 E81.99447
G1 X143.325 Y81.5 E82.02982
G1 X143.325 Y141.5 E87.69982
G1 X143.285 Y142.238 E87.76967
G1 X143.166 Y142.966 E87.83938
G1 X142.968 Y143.678 E87.90921
G1 X142.695 Y144.364 E87.97899
G1 X142.349 Y145.017 E88.04882
G1 X141.935 Y145.629 E88.11865
G1 X141.457 Y146.192 E88.18844
G1 X140.921 Y146.7 E88.25822
G1 X140.333 Y147.147 E88.32802
G1 X139.7 Y147.528 E88.39784
G1 X139.03 Y147.839 E88.46765
G1 X138.33 Y148.075 E88.53745
G1 X137.609 Y148.234 E88.60723
G1 X136.874 Y148.315 E88.6771
G1 X136.5 Y148.325 E88.71246
G1 X86.5 Y148.325 E93.43746
G1 X85.762 Y148.285 E93.5073
G1 X85.034 Y148.166 E93.57701
G1 X84.322 Y147.968 E93.64685
G1 X83.636 Y147.695 E93.71662
G1 X82.983 Y147.349 E93.78646
G1 X82.371 Y146.935 E93.85628
G1 X81.808 Y146.457 E93.92607
G1 X81.3 Y145.921 E93.99586
G1 X80.853 Y145.333 E94.06566
G1 X80.472 Y144.7 E94.13548
G1 X80.161 Y144.03 E94.20528
G1 X79.925 Y143.33 E94.27509
G1 X79.766 Y142.609 E94.34486
G1 X79.685 Y141.874 E94.41474
G1 X79.675 Y141.5 E94.45009
G1 X79.675 Y81.5 E100.12009
G1 X79.715 Y80.762 E100.18994
G1 X79.834 Y80.034 E100.25965
G1 X80.032 Y79.322 E100.32948
G1 X80.305 Y78.636 E100.39926
G1 X80.651 Y77.983 E100.46909
G1 X81.065 Y77.371 E100.53892
G1 X81.543 Y76.808 E100.60871
G0 F4500 X81.889 Y76.955
G1 F1800 X82.421 Y76.471 E100.67667
G1 X83.004 Y76.05 E100.74463
G1 X83.631 Y75.696 E100.81267
G1 X84.292 Y75.413 E100.88062
G1 X84.981 Y75.206 E100.94861
G1 X85.689 Y75.076 E101.01663
G1 X86.5 Y75.025 E101.09342
G1 X136.5 Y75.025 E105.81842
G1 X137.218 Y75.065 E105.88638
G1 X137.928 Y75.184 E105.95441
G1 X138.62 Y75.382 E106.02243
G1 X139.285 Y75.655 E106.09036
G1 X139.917 Y76 E106.1584
G1 X140.506 Y76.413 E106.22638
G1 X141.045 Y76.889 E106.29434
G1 X141.529 Y77.421 E106.36231
G1 X141.95 Y78.004 E106.43026
G1 X142.304 Y78.631 E106.49831
G1 X142.587 Y79.292 E106.56625
G1 X142.794 Y79.981 E106.63424
G1 X142.924 Y80.689 E106.70226
G1 X142.975 Y81.5 E106.77905
G1 X142.975 Y141.5 E112.44905
G1 X142.935 Y142.218 E112.51701
G1 X142.816 Y142.928 E112.58504
G1 X142.618 Y143.62 E112.65306
G1 X142.345 Y144.285 E112.72099
G1 X142 Y144.917 E112.78904
G1 X141.587 Y145.506 E112.85702
G1 X141.111 Y146.045 E112.92497
G1 X140.579 Y146.529 E112.99294
G1 X139.996 Y146.95 E113.06089
G1 X139.369 Y147.304 E113.12894
G1 X138.708 Y147.587 E113.19688
G1 X138.019 Y147.794 E113.26487
G1 X137.311 Y147.924 E113.33289
G1 X136.5 Y147.975 E113.40969
G1 X86.5 Y147.975 E118.13469
G1 X85.782 Y147.935 E118.20264
G1 X85.072 Y147.816 E118.27067
G1 X84.38 Y147.618 E118.33869
G1 X83.715 Y147.345 E118.40662
G1 X83.083 Y147 E118.47467
G1 X82.494 Y146.587 E118.54265
G1 X81.955 Y146.111 E118.6106
G1 X81.471 Y145.579 E118.67857
G1 X81.05 Y144.996 E118.74652
G1 X80.696 Y144.369 E118.81457
G1 X80.413 Y143.708 E118.88252
G1 X80.206 Y143.019 E118.9505
G1 X80.076 Y142.311 E119.01853
G1 X80.025 Y141.5 E119.09532
G1 X80.025 Y81.5 E124.76532
G1 X80.065 Y80.782 E124.83327
G1 X80.184 Y80.072 E124.9013
G1 X80.382 Y79.38 E124.96932
G1 X80.655 Y78.715 E125.03725
G1 X81 Y78.083 E125.1053
G1 X81.413 Y77.494 E125.17328
G1 X81.889 Y76.955 E125.24123
G0 F4500 X82.233 Y77.106
G1 F1800 X82.762 Y76.648 E125.30735
G1 X83.34 Y76.253 E125.37351
G1 X83.959 Y75.927 E125.43962
G1 X84.611 Y75.673 E125.50575
G1 X85.288 Y75.496 E125.57188
G1 X85.981 Y75.397 E125.63803
G1 X86.5 Y75.375 E125.68712
G1 X136.5 Y75.375 E130.41212
G1 X137.199 Y75.415 E130.47828
G1 X137.888 Y75.534 E130.54436
G1 X138.559 Y75.732 E130.61047
G1 X139.204 Y76.004 E130.67662
G1 X139.813 Y76.348 E130.74272
G1 X140.379 Y76.76 E130.80887
G1 X140.894 Y77.233 E130.87495
G1 X141.352 Y77.762 E130.94108
G1 X141.747 Y78.34 E131.00723
G1 X142.073 Y78.959 E131.07335
G1 X142.327 Y79.611 E131.13947
G1 X142.504 Y80.288 E131.2056
G1 X142.603 Y80.981 E131.27175
G1 X142.625 Y81.5 E131.32084
G1 X142.625 Y141.5 E136.99084
G1 X142.585 Y142.199 E137.057
G1 X142.466 Y142.888 E137.12308
G1 X142.268 Y143.559 E137.18919
G1 X141.996 Y144.204 E137.25534
G1 X141.652 Y144.813 E137.32144
G1 X141.24 Y145.379 E137.38759
G1 X140.767 Y145.894 E137.45367
G1 X140.238 Y146.352 E137.5198
G1 X139.66 Y146.747 E137.58595
G1 X139.041 Y147.073 E137.65207
G1 X138.389 Y147.327 E137.71819
G1 X137.712 Y147.504 E137.78432
G1 X137.019 Y147.603 E137.85047
G1 X136.5 Y147.625 E137.89956
G1 X86.5 Y147.625 E142.62456
G1 X85.801 Y147.585 E142.69072
G1 X85.112 Y147.466 E142.7568
G1 X84.441 Y147.268 E142.82291
G1 X83.796 Y146.996 E142.88906
G1 X83.187 Y146.652 E142.95516
G1 X82.621 Y146.24 E143.02132
G1 X82.106 Y145.767 E143.0874
G1 X81.648 Y145.238 E143.15352
G1 X81.253 Y144.66 E143.21968
G1 X80.927 Y144.041 E143.28579
G1 X80.673 Y143.389 E143.35191
G1 X80.496 Y142.712 E143.41804
G1 X80.397 Y142.019 E143.48419
G1 X80.375 Y141.5 E143.53328
G1 X80.375 Y81.5 E149.20328
G1 X80.415 Y80.801 E149.26945
G1 X80.534 Y80.112 E149.33552
G1 X80.732 Y79.441 E149.40163
G1 X81.004 Y78.796 E149.46778
G1 X81.348 Y78.187 E149.53388
G1 X81.76 Y77.621 E149.60004
G1 X82.233 Y77.106 E149.66612
G0 F4500 X82.577 Y77.262
G1 F1800 X83.102 Y76.831 E149.73031
G1 X83.674 Y76.464 E149.79453
G1 X84.285 Y76.167 E149.85873
G1 X84.927 Y75.943 E149.92298
G1 X85.59 Y75.797 E149.98714
G1 X86.5 Y75.725 E150.0734
G1 X136.5 Y75.725 E154.7984
G1 X137.178 Y75.765 E154.86259
G1 X137.847 Y75.884 E154.9268
G1 X138.497 Y76.081 E154.99098
G1 X139.12 Y76.353 E155.05522
G1 X139.706 Y76.697 E155.11944
G1 X140.248 Y77.107 E155.18366
G1 X140.738 Y77.577 E155.24782
G1 X141.169 Y78.102 E155.31201
G1 X141.536 Y78.674 E155.37623
G1 X141.833 Y79.285 E155.44043
G1 X142.057 Y79.927 E155.50469
G1 X142.203 Y80.59 E155.56884
G1 X142.275 Y81.5 E155.65511
G1 X142.275 Y141.5 E161.32511
G1 X142.235 Y142.178 E161.38929
G1 X142.116 Y142.847 E161.4535
G1 X141.919 Y143.497 E161.51769
G1 X141.647 Y144.12 E161.58193
G1 X141.303 Y144.706 E161.64614
G1 X140.893 Y145.248 E161.71036
G1 X140.423 Y145.738 E161.77453
G1 X139.898 Y146.169 E161.83872
G1 X139.326 Y146.536 E161.90294
G1 X138.715 Y146.833 E161.96714
G1 X138.073 Y147.057 E162.03139
G1 X137.41 Y147.203 E162.09555
G1 X136.5 Y147.275 E162.18181
G1 X86.5 Y147.275 E166.90681
G1 X85.822 Y147.235 E166.971
G1 X85.153 Y147.116 E167.03521
G1 X84.503 Y146.919 E167.09939
G1 X83.88 Y146.647 E167.16363
G1 X83.294 Y146.303 E167.22785
G1 X82.752 Y145.893 E167.29207
G1 X82.262 Y145.423 E167.35623
G1 X81.831 Y144.898 E167.42042
G1 X81.464 Y144.326 E167.48464
G1 X81.167 Y143.715 E167.54884
G1 X80.943 Y143.073 E167.6131
G1 X80.797 Y142.41 E167.67725
G1 X80.725 Y141.5 E167.76352
G1 X80.725 Y81.5 E173.43352
G1 X80.765 Y80.822 E173.4977
G1 X80.884 Y80.153 E173.56191
G1 X81.081 Y79.503 E173.6261
G1 X81.353 Y78.88 E173.69034
G1 X81.697 Y78.294 E173.75455
G1 X82.107 Y77.752 E173.81877
G1 X82.577 Y77.262 E173.88294
G0 F4500 X82.92 Y77.424
G1 F1800 X83.441 Y77.02 E173.94524
G1 X84.006 Y76.682 E174.00746
G1 X84.608 Y76.416 E174.06965
G1 X85.238 Y76.224 E174.13189
G1 X85.886 Y76.11 E174.19407
G1 X86.5 Y76.075 E174.25218
G1 X136.5 Y76.075 E178.97718
G1 X137.157 Y76.115 E179.03938
G1 X137.805 Y76.234 E179.10164
G1 X138.433 Y76.431 E179.16384
G1 X139.033 Y76.703 E179.2261
G1 X139.596 Y77.045 E179.28835
G1 X140.113 Y77.453 E179.35058
G1 X140.576 Y77.92 E179.41273
G1 X140.98 Y78.441 E179.47503
G1 X141.318 Y79.006 E179.53725
G1 X141.584 Y79.608 E179.59944
G1 X141.776 Y80.238 E179.66168
G1 X141.89 Y80.886 E179.72386
G1 X141.925 Y81.5 E179.78198
G1 X141.925 Y141.5 E185.45198
G1 X141.885 Y142.157 E185.51418
G1 X141.766 Y142.805 E185.57644
G1 X141.569 Y143.433 E185.63864
G1 X141.297 Y144.033 E185.70089
G1 X140.955 Y144.596 E185.76314
G1 X140.547 Y145.113 E185.82538
G1 X140.08 Y145.576 E185.88752
G1 X139.559 Y145.98 E185.94982
G1 X138.994 Y146.318 E186.01204
G1 X138.392 Y146.584 E186.07424
G1 X137.762 Y146.776 E186.13648
G1 X137.114 Y146.89 E186.19865
G1 X136.5 Y146.925 E186.25677
G1 X86.5 Y146.925 E190.98177
G1 X85.843 Y146.885 E191.04397
G1 X85.195 Y146.766 E191.10623
G1 X84.567 Y146.569 E191.16843
G1 X83.967 Y146.297 E191.23068
G1 X83.404 Y145.955 E191.29293
G1 X82.887 Y145.547 E191.35517
G1 X82.424 Y145.08 E191.41731
G1 X82.02 Y144.559 E191.47962
G1 X81.682 Y143.994 E191.54183
G1 X81.416 Y143.392 E191.60403
G1 X81.224 Y142.762 E191.66627
G1 X81.11 Y142.114 E191.72844
G1 X81.075 Y141.5 E191.78656
G1 X81.075 Y81.5 E197.45656
G1 X81.115 Y80.843 E197.51876
G1 X81.234 Y80.195 E197.58102
G1 X81.431 Y79.567 E197.64322
G1 X81.703 Y78.967 E197.70547
G1 X82.045 Y78.404 E197.76773
G1 X82.453 Y77.887 E197.82996
G1 X82.92 Y77.424 E197.89211
G0 F4500 X83.263 Y77.592
G1 F1800 X83.778 Y77.217 E197.95231
G1 X84.335 Y76.91 E198.01241
G1 X84.927 Y76.675 E198.0726
G1 X85.544 Y76.516 E198.13281
G1 X86.176 Y76.435 E198.19303
G1 X86.5 Y76.425 E198.22366
G1 X136.5 Y76.425 E202.94866
G1 X137.136 Y76.465 E203.00888
G1 X137.761 Y76.584 E203.069
G1 X138.367 Y76.781 E203.12922
G1 X138.943 Y77.052 E203.18938
