;FLAVOR:UltiGCode
;TIME:5607
;MATERIAL:9166
;MATERIAL2:0
;NOZZLE_DIAMETER:0.4
;Generated with Cura_SteamEngine 2.4.0

;LAYER_COUNT:72
;LAYER:0
M107
G10
G0 F4500 X40.283 Y92.965 Z0.27
;TYPE:SKIRT
G11
G1 F1800 X41.01 Y92.647 E0.07499
G1 X41.766 Y92.404 E0.15003
G1 X42.542 Y92.239 E0.225
G1 X43.33 Y92.153 E0.29991
G1 X43.793 Y92.139 E0.34368
G1 X100.793 Y92.139 E5.73018
G1 X101.585 Y92.179 E5.80512
G1 X102.37 Y92.298 E5.88015
G1 X103.138 Y92.496 E5.9551
G1 X103.883 Y92.771 E6.03015
G1 X104.596 Y93.118 E6.10508
G1 X105.271 Y93.536 E6.18011
G1 X105.9 Y94.019 E6.25505
G1 X106.477 Y94.564 E6.33006
G1 X106.997 Y95.163 E6.40501
G1 X107.453 Y95.812 E6.47997
G1 X107.842 Y96.504 E6.55499
G1 X108.16 Y97.231 E6.62997
G1 X108.403 Y97.987 E6.70502
G1 X108.568 Y98.763 E6.77999
G1 X108.654 Y99.551 E6.8549
G1 X108.668 Y100.014 E6.89867
G1 X108.668 Y123.013 E9.07208
G1 X108.628 Y123.805 E9.14701
G1 X108.509 Y124.59 E9.22204
G1 X108.311 Y125.358 E9.29699
G1 X108.036 Y126.103 E9.37204
G1 X107.689 Y126.816 E9.44697
G1 X107.271 Y127.491 E9.522
G1 X106.788 Y128.12 E9.59695
G1 X106.243 Y128.697 E9.67195
G1 X105.644 Y129.217 E9.74691
G1 X104.995 Y129.673 E9.82186
G1 X104.303 Y130.062 E9.89688
G1 X103.576 Y130.38 E9.97187
G1 X102.82 Y130.623 E10.04691
G1 X102.044 Y130.788 E10.12188
G1 X101.256 Y130.874 E10.19679
G1 X100.793 Y130.888 E10.24056
G1 X43.793 Y130.888 E15.62706
G1 X43.001 Y130.848 E15.702
G1 X42.216 Y130.729 E15.77703
G1 X41.448 Y130.531 E15.85198
G1 X40.703 Y130.256 E15.92703
G1 X39.99 Y129.909 E16.00196
G1 X39.315 Y129.491 E16.07699
G1 X38.686 Y129.008 E16.15193
G1 X38.109 Y128.463 E16.22694
G1 X37.589 Y127.864 E16.3019
G1 X37.133 Y127.215 E16.37685
G1 X36.744 Y126.523 E16.45187
G1 X36.426 Y125.796 E16.52686
G1 X36.183 Y125.04 E16.6019
G1 X36.018 Y124.264 E16.67687
G1 X35.932 Y123.476 E16.75178
G1 X35.918 Y123.013 E16.79555
G1 X35.918 Y100.014 E18.96896
G1 X35.958 Y99.222 E19.0439
G1 X36.077 Y98.437 E19.11893
G1 X36.275 Y97.669 E19.19388
G1 X36.55 Y96.924 E19.26892
G1 X36.897 Y96.211 E19.34386
G1 X37.315 Y95.536 E19.41888
G1 X37.798 Y94.907 E19.49383
G1 X38.343 Y94.33 E19.56883
G1 X38.942 Y93.81 E19.64379
G1 X39.591 Y93.354 E19.71875
G1 X40.283 Y92.965 E19.79377
G0 F4500 X40.612 Y93.195
G1 F1800 X41.331 Y92.903 E19.8671
G1 X42.076 Y92.688 E19.94038
G1 X42.839 Y92.55 E20.01365
G1 X43.793 Y92.489 E20.10399
G1 X100.793 Y92.489 E25.49049
G1 X101.568 Y92.529 E25.56382
G1 X102.334 Y92.648 E25.63708
G1 X103.084 Y92.846 E25.71038
G1 X103.81 Y93.12 E25.78371
G1 X104.503 Y93.467 E25.85695
G1 X105.157 Y93.884 E25.93025
G1 X105.765 Y94.366 E26.00357
G1 X106.32 Y94.908 E26.07688
G1 X106.817 Y95.504 E26.15021
G1 X107.249 Y96.148 E26.22349
G1 X107.612 Y96.833 E26.29675
G1 X107.904 Y97.552 E26.37009
G1 X108.119 Y98.297 E26.44336
G1 X108.257 Y99.06 E26.51664
G1 X108.318 Y100.014 E26.60697
G1 X108.318 Y123.013 E28.78038
G1 X108.278 Y123.788 E28.85371
G1 X108.159 Y124.554 E28.92697
G1 X107.961 Y125.304 E29.00027
G1 X107.687 Y126.03 E29.0736
G1 X107.34 Y126.723 E29.14684
G1 X106.923 Y127.377 E29.22014
G1 X106.441 Y127.985 E29.29346
G1 X105.899 Y128.54 E29.36677
G1 X105.303 Y129.037 E29.4401
G1 X104.659 Y129.469 E29.51339
G1 X103.974 Y129.832 E29.58665
G1 X103.255 Y130.124 E29.65998
G1 X102.51 Y130.339 E29.73326
G1 X101.747 Y130.477 E29.80653
G1 X100.793 Y130.538 E29.89687
G1 X43.793 Y130.538 E35.28337
G1 X43.018 Y130.498 E35.3567
G1 X42.252 Y130.379 E35.42996
G1 X41.502 Y130.181 E35.50326
G1 X40.776 Y129.907 E35.57659
G1 X40.083 Y129.56 E35.64983
G1 X39.429 Y129.143 E35.72313
G1 X38.821 Y128.661 E35.79645
G1 X38.266 Y128.119 E35.86976
G1 X37.769 Y127.523 E35.94309
G1 X37.337 Y126.879 E36.01637
G1 X36.974 Y126.194 E36.08963
G1 X36.682 Y125.475 E36.16297
G1 X36.467 Y124.73 E36.23625
G1 X36.329 Y123.967 E36.30952
G1 X36.268 Y123.013 E36.39986
G1 X36.268 Y100.014 E38.57326
G1 X36.308 Y99.239 E38.6466
G1 X36.427 Y98.473 E38.71985
G1 X36.625 Y97.723 E38.79316
G1 X36.899 Y96.997 E38.86649
G1 X37.246 Y96.304 E38.93973
G1 X37.663 Y95.65 E39.01302
G1 X38.145 Y95.042 E39.08634
G1 X38.687 Y94.487 E39.15965
G1 X39.283 Y93.99 E39.23299
G1 X39.927 Y93.558 E39.30627
G1 X40.612 Y93.195 E39.37953
G0 F4500 X40.939 Y93.431
G1 F1800 X41.648 Y93.167 E39.45102
G1 X42.382 Y92.979 E39.52263
G1 X43.131 Y92.87 E39.59415
G1 X43.793 Y92.839 E39.65678
G1 X100.793 Y92.839 E45.04328
G1 X101.549 Y92.879 E45.11482
G1 X102.297 Y92.998 E45.1864
G1 X103.028 Y93.196 E45.25796
G1 X103.735 Y93.47 E45.32962
G1 X104.408 Y93.816 E45.40113
G1 X105.041 Y94.232 E45.47271
G1 X105.627 Y94.712 E45.54429
G1 X106.159 Y95.251 E45.61586
G1 X106.631 Y95.843 E45.68741
G1 X107.038 Y96.482 E45.759
G1 X107.376 Y97.16 E45.83059
G1 X107.64 Y97.869 E45.90209
G1 X107.828 Y98.603 E45.97369
G1 X107.937 Y99.352 E46.04522
G1 X107.968 Y100.014 E46.10784
G1 X107.968 Y123.013 E48.28125
G1 X107.928 Y123.769 E48.35279
G1 X107.809 Y124.517 E48.42437
G1 X107.611 Y125.248 E48.49594
G1 X107.337 Y125.955 E48.56759
G1 X106.991 Y126.628 E48.6391
G1 X106.575 Y127.261 E48.71068
G1 X106.095 Y127.847 E48.78226
G1 X105.556 Y128.379 E48.85383
G1 X104.964 Y128.851 E48.92538
G1 X104.325 Y129.258 E48.99697
G1 X103.647 Y129.596 E49.06856
G1 X102.938 Y129.86 E49.14006
G1 X102.204 Y130.048 E49.21166
G1 X101.455 Y130.157 E49.28319
G1 X100.793 Y130.188 E49.34581
G1 X43.793 Y130.188 E54.73231
G1 X43.037 Y130.148 E54.80386
G1 X42.289 Y130.029 E54.87543
G1 X41.558 Y129.831 E54.947
G1 X40.851 Y129.557 E55.01865
G1 X40.178 Y129.211 E55.09017
G1 X39.545 Y128.795 E55.16175
G1 X38.959 Y128.315 E55.23333
G1 X38.427 Y127.776 E55.3049
G1 X37.955 Y127.184 E55.37644
G1 X37.548 Y126.545 E55.44804
G1 X37.21 Y125.867 E55.51963
G1 X36.946 Y125.158 E55.59112
G1 X36.758 Y124.424 E55.66273
G1 X36.649 Y123.675 E55.73425
G1 X36.618 Y123.013 E55.79688
G1 X36.618 Y100.014 E57.97029
G1 X36.658 Y99.258 E58.04183
G1 X36.777 Y98.51 E58.1134
G1 X36.975 Y97.779 E58.18497
G1 X37.249 Y97.072 E58.25662
G1 X37.595 Y96.399 E58.32814
G1 X38.011 Y95.766 E58.39972
G1 X38.491 Y95.18 E58.4713
G1 X39.03 Y94.648 E58.54287
G1 X39.622 Y94.176 E58.61442
G1 X40.261 Y93.769 E58.68601
G1 X40.939 Y93.431 E58.7576
G0 F4500 X41.263 Y93.675
G1 F1800 X41.963 Y93.439 E58.82741
G1 X42.684 Y93.28 E58.89718
G1 X43.419 Y93.199 E58.96706
G1 X43.793 Y93.189 E59.00241
G1 X100.793 Y93.189 E64.38891
G1 X101.531 Y93.229 E64.45876
G1 X102.259 Y93.348 E64.52847
G1 X102.971 Y93.546 E64.5983
G1 X103.657 Y93.819 E64.66808
G1 X104.31 Y94.165 E64.73791
G1 X104.922 Y94.579 E64.80774
G1 X105.485 Y95.057 E64.87753
G1 X105.993 Y95.593 E64.94732
G1 X106.44 Y96.181 E65.01711
G1 X106.821 Y96.814 E65.08693
G1 X107.132 Y97.484 E65.15674
G1 X107.368 Y98.184 E65.22654
G1 X107.527 Y98.905 E65.29632
G1 X107.608 Y99.64 E65.36619
G1 X107.618 Y100.014 E65.40155
G1 X107.618 Y123.013 E67.57495
G1 X107.578 Y123.751 E67.6448
G1 X107.459 Y124.479 E67.71451
G1 X107.261 Y125.191 E67.78434
G1 X106.988 Y125.877 E67.85412
G1 X106.642 Y126.53 E67.92395
G1 X106.228 Y127.142 E67.99378
G1 X105.75 Y127.705 E68.06357
G1 X105.214 Y128.213 E68.13336
G1 X104.626 Y128.66 E68.20315
G1 X103.993 Y129.041 E68.27297
G1 X103.323 Y129.352 E68.34278
G1 X102.623 Y129.588 E68.41258
G1 X101.902 Y129.747 E68.48236
G1 X101.167 Y129.828 E68.55223
G1 X100.793 Y129.838 E68.58759
G1 X43.793 Y129.838 E73.97409
G1 X43.055 Y129.798 E74.04393
G1 X42.327 Y129.679 E74.11364
G1 X41.615 Y129.481 E74.18348
G1 X40.929 Y129.208 E74.25325
G1 X40.276 Y128.862 E74.32309
G1 X39.664 Y128.448 E74.39291
G1 X39.101 Y127.97 E74.4627
G1 X38.593 Y127.434 E74.53249
G1 X38.146 Y126.846 E74.60229
G1 X37.765 Y126.213 E74.67211
G1 X37.454 Y125.543 E74.74191
G1 X37.218 Y124.843 E74.81172
G1 X37.059 Y124.122 E74.88149
G1 X36.978 Y123.387 E74.95137
G1 X36.968 Y123.013 E74.98673
G1 X36.968 Y100.014 E77.16013
G1 X37.008 Y99.276 E77.22997
G1 X37.127 Y98.548 E77.29968
G1 X37.325 Y97.836 E77.36952
G1 X37.598 Y97.15 E77.43929
G1 X37.944 Y96.497 E77.50913
G1 X38.358 Y95.885 E77.57895
G1 X38.836 Y95.322 E77.64874
G1 X39.372 Y94.814 E77.71853
G1 X39.96 Y94.367 E77.78833
G1 X40.593 Y93.986 E77.85815
G1 X41.263 Y93.675 E77.92795
G0 F4500 X41.585 Y93.927
G1 F1800 X42.274 Y93.72 E77.99594
G1 X42.982 Y93.59 E78.06396
G1 X43.793 Y93.539 E78.14075
G1 X100.793 Y93.539 E83.52725
G1 X101.511 Y93.579 E83.59521
G1 X102.221 Y93.698 E83.66324
G1 X102.913 Y93.896 E83.73126
G1 X103.578 Y94.169 E83.79919
G1 X104.21 Y94.514 E83.86723
G1 X104.799 Y94.927 E83.93521
G1 X105.338 Y95.403 E84.00317
G1 X105.822 Y95.935 E84.07113
G1 X106.243 Y96.518 E84.13909
G1 X106.597 Y97.145 E84.20713
G1 X106.88 Y97.806 E84.27508
G1 X107.087 Y98.495 E84.34307
G1 X107.217 Y99.203 E84.41109
G1 X107.268 Y100.014 E84.48788
G1 X107.268 Y123.013 E86.66129
G1 X107.228 Y123.731 E86.72925
G1 X107.109 Y124.441 E86.79728
G1 X106.911 Y125.133 E86.86529
G1 X106.638 Y125.798 E86.93323
G1 X106.293 Y126.43 E87.00127
G1 X105.88 Y127.019 E87.06925
G1 X105.404 Y127.558 E87.1372
G1 X104.872 Y128.042 E87.20517
G1 X104.289 Y128.463 E87.27313
G1 X103.662 Y128.817 E87.34117
G1 X103.001 Y129.1 E87.40912
G1 X102.312 Y129.307 E87.4771
G1 X101.604 Y129.437 E87.54513
G1 X100.793 Y129.488 E87.62192
G1 X43.793 Y129.488 E93.00842
G1 X43.075 Y129.448 E93.07638
G1 X42.365 Y129.329 E93.14441
G1 X41.673 Y129.131 E93.21243
G1 X41.008 Y128.858 E93.28036
G1 X40.376 Y128.513 E93.3484
G1 X39.787 Y128.1 E93.41638
G1 X39.248 Y127.624 E93.48434
G1 X38.764 Y127.092 E93.5523
G1 X38.343 Y126.509 E93.62026
G1 X37.989 Y125.882 E93.6883
G1 X37.706 Y125.221 E93.75625
G1 X37.499 Y124.532 E93.82424
G1 X37.369 Y123.824 E93.89226
G1 X37.318 Y123.013 E93.96905
G1 X37.318 Y100.014 E96.14246
G1 X37.358 Y99.296 E96.21041
G1 X37.477 Y98.586 E96.27844
G1 X37.675 Y97.894 E96.34646
G1 X37.948 Y97.229 E96.41439
G1 X38.293 Y96.597 E96.48244
G1 X38.706 Y96.008 E96.55042
G1 X39.182 Y95.469 E96.61837
G1 X39.714 Y94.985 E96.68634
G1 X40.297 Y94.564 E96.75429
G1 X40.924 Y94.21 E96.82234
G1 X41.585 Y93.927 E96.89029
G0 F4500 X41.904 Y94.187
G1 F1800 X42.581 Y94.01 E96.95641
G1 X43.274 Y93.911 E97.02257
G1 X43.793 Y93.889 E97.07166
G1 X100.793 Y93.889 E102.45816
G1 X101.492 Y93.929 E102.52432
G1 X102.181 Y94.048 E102.59039
G1 X102.852 Y94.246 E102.65651
G1 X103.497 Y94.518 E102.72266
G1 X104.106 Y94.862 E102.78875
G1 X104.672 Y95.274 E102.85491
G1 X105.187 Y95.747 E102.92099
G1 X105.645 Y96.276 E102.98711
G1 X106.04 Y96.854 E103.05327
G1 X106.366 Y97.473 E103.11938
G1 X106.62 Y98.125 E103.18551
G1 X106.797 Y98.802 E103.25163
G1 X106.896 Y99.495 E103.31779
G1 X106.918 Y100.014 E103.36688
G1 X106.918 Y123.013 E105.54028
G1 X106.878 Y123.712 E105.60645
G1 X106.759 Y124.401 E105.67252
G1 X106.561 Y125.072 E105.73863
G1 X106.289 Y125.717 E105.80478
G1 X105.945 Y126.326 E105.87088
G1 X105.533 Y126.892 E105.93704
G1 X105.06 Y127.407 E106.00312
G1 X104.531 Y127.865 E106.06924
G1 X103.953 Y128.26 E106.1354
G1 X103.334 Y128.586 E106.20151
G1 X102.682 Y128.84 E106.26763
G1 X102.005 Y129.017 E106.33376
G1 X101.312 Y129.116 E106.39991
G1 X100.793 Y129.138 E106.449
G1 X43.793 Y129.138 E111.8355
G1 X43.094 Y129.098 E111.90167
G1 X42.405 Y128.979 E111.96774
G1 X41.734 Y128.781 E112.03385
G1 X41.089 Y128.509 E112.10001
G1 X40.48 Y128.165 E112.1661
G1 X39.914 Y127.753 E112.23226
G1 X39.399 Y127.28 E112.29834
G1 X38.941 Y126.751 E112.36446
G1 X38.546 Y126.173 E112.43062
G1 X38.22 Y125.554 E112.49673
G1 X37.966 Y124.902 E112.56286
G1 X37.789 Y124.225 E112.62898
G1 X37.69 Y123.532 E112.69514
G1 X37.668 Y123.013 E112.74423
G1 X37.668 Y100.014 E114.91763
G1 X37.708 Y99.315 E114.98379
G1 X37.827 Y98.626 E115.04987
G1 X38.025 Y97.955 E115.11598
G1 X38.297 Y97.31 E115.18213
G1 X38.641 Y96.701 E115.24823
G1 X39.053 Y96.135 E115.31439
G1 X39.526 Y95.62 E115.38047
G1 X40.055 Y95.162 E115.44659
G1 X40.633 Y94.767 E115.51275
G1 X41.252 Y94.441 E115.57886
G1 X41.904 Y94.187 E115.64498
G0 F4500 X42.22 Y94.457
G1 F1800 X42.883 Y94.311 E115.70914
G1 X43.793 Y94.239 E115.7954
G1 X100.793 Y94.239 E121.1819
G1 X101.471 Y94.279 E121.24608
G1 X102.14 Y94.398 E121.3103
G1 X102.79 Y94.595 E121.37448
G1 X103.413 Y94.867 E121.43872
G1 X103.999 Y95.211 E121.50293
G1 X104.541 Y95.621 E121.56716
G1 X105.031 Y96.091 E121.63132
G1 X105.462 Y96.616 E121.69551
G1 X105.829 Y97.188 E121.75973
G1 X106.126 Y97.799 E121.82393
G1 X106.35 Y98.441 E121.88819
G1 X106.496 Y99.104 E121.95234
G1 X106.568 Y100.014 E122.03861
G1 X106.568 Y123.013 E124.21201
G1 X106.528 Y123.691 E124.27619
G1 X106.409 Y124.36 E124.34041
G1 X106.212 Y125.01 E124.40459
G1 X105.94 Y125.633 E124.46883
G1 X105.596 Y126.219 E124.53304
G1 X105.186 Y126.761 E124.59727
G1 X104.716 Y127.251 E124.66143
G1 X104.191 Y127.682 E124.72562
G1 X103.619 Y128.049 E124.78984
G1 X103.008 Y128.346 E124.85404
G1 X102.366 Y128.57 E124.9183
G1 X101.703 Y128.716 E124.98245
G1 X100.793 Y128.788 E125.06872
G1 X43.793 Y128.788 E130.45522
G1 X43.115 Y128.748 E130.5194
G1 X42.446 Y128.629 E130.58361
G1 X41.796 Y128.432 E130.6478
G1 X41.173 Y128.16 E130.71204
G1 X40.587 Y127.816 E130.77625
G1 X40.045 Y127.406 E130.84047
G1 X39.555 Y126.936 E130.90463
G1 X39.124 Y126.411 E130.96882
G1 X38.757 Y125.839 E131.03305
G1 X38.46 Y125.228 E131.09725
G1 X38.236 Y124.586 E131.1615
G1 X38.09 Y123.923 E131.22566
G1 X38.018 Y123.013 E131.31192
G1 X38.018 Y100.014 E133.48533
G1 X38.058 Y99.336 E133.54951
G1 X38.177 Y98.667 E133.61372
G1 X38.374 Y98.017 E133.67791
G1 X38.646 Y97.394 E133.74215
G1 X38.99 Y96.808 E133.80636
G1 X39.4 Y96.266 E133.87058
G1 X39.87 Y95.776 E133.93475
G1 X40.395 Y95.345 E133.99893
G1 X40.967 Y94.978 E134.06316
G1 X41.578 Y94.681 E134.12736
G1 X42.22 Y94.457 E134.19161
G0 F4500 X42.531 Y94.738
G1 F1800 X43.179 Y94.624 E134.25379
G1 X43.793 Y94.589 E134.31191
G1 X100.793 Y94.589 E139.69841
G1 X101.45 Y94.629 E139.76061
G1 X102.098 Y94.748 E139.82287
G1 X102.726 Y94.945 E139.88507
G1 X103.326 Y95.217 E139.94732
G1 X103.889 Y95.559 E140.00957
G1 X104.406 Y95.967 E140.07181
G1 X104.869 Y96.434 E140.13395
G1 X105.273 Y96.955 E140.19626
G1 X105.611 Y97.52 E140.25847
G1 X105.877 Y98.122 E140.32067
G1 X106.069 Y98.752 E140.38291
G1 X106.183 Y99.4 E140.44508
G1 X106.218 Y100.014 E140.5032
G1 X106.218 Y123.013 E142.67661
G1 X106.178 Y123.67 E142.73881
G1 X106.059 Y124.318 E142.80107
G1 X105.862 Y124.946 E142.86326
G1 X105.59 Y125.546 E142.92552
G1 X105.248 Y126.109 E142.98777
G1 X104.84 Y126.626 E143.05001
G1 X104.373 Y127.089 E143.11215
G1 X103.852 Y127.493 E143.17445
G1 X103.287 Y127.831 E143.23667
G1 X102.685 Y128.097 E143.29887
G1 X102.055 Y128.289 E143.3611
G1 X101.407 Y128.403 E143.42328
G1 X100.793 Y128.438 E143.4814
G1 X43.793 Y128.438 E148.8679
G1 X43.136 Y128.398 E148.9301
G1 X42.488 Y128.279 E148.99236
G1 X41.86 Y128.082 E149.05456
G1 X41.26 Y127.81 E149.11681
G1 X40.697 Y127.468 E149.17906
G1 X40.18 Y127.06 E149.2413
G1 X39.717 Y126.593 E149.30344
G1 X39.313 Y126.072 E149.36575
G1 X38.975 Y125.507 E149.42796
G1 X38.709 Y124.905 E149.49016
G1 X38.517 Y124.275 E149.5524
G1 X38.403 Y123.627 E149.61457
G1 X38.368 Y123.013 E149.67269
G1 X38.368 Y100.014 E151.8461
G1 X38.408 Y99.357 E151.9083
G1 X38.527 Y98.709 E151.97056
G1 X38.724 Y98.081 E152.03276
G1 X38.996 Y97.481 E152.09501
G1 X39.338 Y96.918 E152.15726
G1 X39.746 Y96.401 E152.2195
G1 X40.213 Y95.938 E152.28164
G1 X40.734 Y95.534 E152.34394
G1 X41.299 Y95.196 E152.40616
G1 X41.901 Y94.93 E152.46836
G1 X42.531 Y94.738 E152.5306
G0 F4500 X42.837 Y95.03
G1 F1800 X43.469 Y94.949 E152.59081
G1 X43.793 Y94.939 E152.62144
G1 X100.793 Y94.939 E158.00794
G1 X101.429 Y94.979 E158.06816
G1 X102.054 Y95.098 E158.12828
G1 X102.66 Y95.295 E158.1885
G1 X103.236 Y95.566 E158.24866
G1 X103.774 Y95.907 E158.30885
