;FLAVOR:UltiGCode
;TIME:5601
;MATERIAL:9167
;MATERIAL2:0
;NOZZLE_DIAMETER:0.4
;Generated with Cura_SteamEngine 2.4.0

;LAYER_COUNT:72
;LAYER:0
M107
G10
G0 F4500 X77.656 Y73.393 Z0.27
;TYPE:SKIRT
G11
G1 F1800 X78.255 Y72.873 E0.07496
G1 X78.904 Y72.417 E0.14992
G1 X79.596 Y72.028 E0.22493
G1 X80.323 Y71.71 E0.29992
G1 X81.079 Y71.467 E0.37496
G1 X81.855 Y71.302 E0.44993
G1 X82.643 Y71.216 E0.52484
G1 X83.106 Y71.202 E0.56861
G1 X140.105 Y71.202 E5.95502
G1 X140.897 Y71.242 E6.02996
G1 X141.682 Y71.361 E6.10499
G1 X142.45 Y71.559 E6.17994
G1 X143.195 Y71.834 E6.25498
G1 X143.908 Y72.181 E6.32992
G1 X144.583 Y72.599 E6.40495
G1 X145.212 Y73.082 E6.47989
G1 X145.789 Y73.627 E6.55489
G1 X146.309 Y74.226 E6.62985
G1 X146.765 Y74.875 E6.70481
G1 X147.154 Y75.567 E6.77983
G1 X147.472 Y76.294 E6.85481
G1 X147.715 Y77.05 E6.92986
G1 X147.88 Y77.826 E7.00483
G1 X147.966 Y78.614 E7.07974
G1 X147.98 Y79.077 E7.12351
G1 X147.98 Y102.077 E9.29701
G1 X147.94 Y102.869 E9.37195
G1 X147.821 Y103.654 E9.44698
G1 X147.623 Y104.422 E9.52193
G1 X147.348 Y105.167 E9.59697
G1 X147.001 Y105.88 E9.67191
G1 X146.583 Y106.555 E9.74693
G1 X146.1 Y107.184 E9.82188
G1 X145.555 Y107.761 E9.89688
G1 X144.956 Y108.281 E9.97184
G1 X144.307 Y108.737 E10.0468
G1 X143.615 Y109.126 E10.12182
G1 X142.888 Y109.444 E10.1968
G1 X142.132 Y109.687 E10.27184
G1 X141.356 Y109.852 E10.34682
G1 X140.568 Y109.938 E10.42172
G1 X140.105 Y109.952 E10.4655
G1 X83.106 Y109.952 E15.8519
G1 X82.314 Y109.912 E15.92684
G1 X81.529 Y109.793 E16.00187
G1 X80.761 Y109.595 E16.07682
G1 X80.016 Y109.32 E16.15187
G1 X79.303 Y108.973 E16.2268
G1 X78.628 Y108.555 E16.30183
G1 X77.999 Y108.072 E16.37677
G1 X77.422 Y107.527 E16.45178
G1 X76.902 Y106.928 E16.52674
G1 X76.446 Y106.279 E16.60169
G1 X76.057 Y105.587 E16.67671
G1 X75.739 Y104.86 E16.7517
G1 X75.496 Y104.104 E16.82674
G1 X75.331 Y103.328 E16.90171
G1 X75.245 Y102.54 E16.97662
G1 X75.231 Y102.077 E17.02039
G1 X75.231 Y79.077 E19.19389
G1 X75.271 Y78.285 E19.26883
G1 X75.39 Y77.5 E19.34386
G1 X75.588 Y76.732 E19.41881
G1 X75.863 Y75.987 E19.49386
G1 X76.21 Y75.274 E19.56879
G1 X76.628 Y74.599 E19.64382
G1 X77.111 Y73.97 E19.71876
G1 X77.656 Y73.393 E19.79377
G0 F4500 X78 Y73.55
G1 F1800 X78.596 Y73.053 E19.8671
G1 X79.24 Y72.621 E19.94038
G1 X79.925 Y72.258 E20.01364
G1 X80.644 Y71.966 E20.08698
G1 X81.389 Y71.751 E20.16025
G1 X82.152 Y71.613 E20.23353
G1 X83.106 Y71.552 E20.32386
G1 X140.105 Y71.552 E25.71027
G1 X140.88 Y71.592 E25.7836
G1 X141.646 Y71.711 E25.85686
G1 X142.396 Y71.909 E25.93016
G1 X143.122 Y72.183 E26.00349
G1 X143.815 Y72.53 E26.07673
G1 X144.469 Y72.947 E26.15003
G1 X145.077 Y73.429 E26.22335
G1 X145.632 Y73.971 E26.29666
G1 X146.129 Y74.567 E26.36999
G1 X146.561 Y75.211 E26.44328
G1 X146.924 Y75.896 E26.51654
G1 X147.216 Y76.615 E26.58987
G1 X147.431 Y77.36 E26.66315
G1 X147.569 Y78.123 E26.73642
G1 X147.63 Y79.077 E26.82676
G1 X147.63 Y102.077 E29.00026
G1 X147.59 Y102.852 E29.07359
G1 X147.471 Y103.618 E29.14685
G1 X147.273 Y104.368 E29.22015
G1 X146.999 Y105.094 E29.29348
G1 X146.652 Y105.787 E29.36672
G1 X146.235 Y106.441 E29.44002
G1 X145.753 Y107.049 E29.51334
G1 X145.211 Y107.604 E29.58665
G1 X144.615 Y108.101 E29.65998
G1 X143.971 Y108.533 E29.73326
G1 X143.286 Y108.896 E29.80652
G1 X142.567 Y109.188 E29.87986
G1 X141.822 Y109.403 E29.95313
G1 X141.059 Y109.541 E30.02641
G1 X140.105 Y109.602 E30.11675
G1 X83.106 Y109.602 E35.50315
G1 X82.331 Y109.562 E35.57649
G1 X81.565 Y109.443 E35.64974
G1 X80.815 Y109.245 E35.72304
G1 X80.089 Y108.971 E35.79637
G1 X79.396 Y108.624 E35.86961
G1 X78.742 Y108.207 E35.94291
G1 X78.134 Y107.725 E36.01623
G1 X77.579 Y107.183 E36.08954
G1 X77.082 Y106.587 E36.16288
G1 X76.65 Y105.943 E36.23616
G1 X76.287 Y105.258 E36.30942
G1 X75.995 Y104.539 E36.38275
G1 X75.78 Y103.794 E36.45603
G1 X75.642 Y103.031 E36.5293
G1 X75.581 Y102.077 E36.61964
G1 X75.581 Y79.077 E38.79314
G1 X75.621 Y78.302 E38.86647
G1 X75.74 Y77.536 E38.93973
G1 X75.938 Y76.786 E39.01303
G1 X76.212 Y76.06 E39.08636
G1 X76.559 Y75.367 E39.1596
G1 X76.976 Y74.713 E39.2329
G1 X77.458 Y74.105 E39.30622
G1 X78 Y73.55 E39.37953
G0 F4500 X78.343 Y73.711
G1 F1800 X78.935 Y73.239 E39.45108
G1 X79.574 Y72.832 E39.52267
G1 X80.252 Y72.494 E39.59426
G1 X80.961 Y72.23 E39.66576
G1 X81.695 Y72.042 E39.73736
G1 X82.444 Y71.933 E39.80889
G1 X83.106 Y71.902 E39.87151
G1 X140.105 Y71.902 E45.25792
G1 X140.861 Y71.942 E45.32946
G1 X141.609 Y72.061 E45.40104
G1 X142.34 Y72.259 E45.4726
G1 X143.047 Y72.533 E45.54426
G1 X143.72 Y72.879 E45.61577
G1 X144.353 Y73.295 E45.68735
G1 X144.939 Y73.775 E45.75893
G1 X145.471 Y74.314 E45.8305
G1 X145.943 Y74.906 E45.90205
G1 X146.35 Y75.545 E45.97364
G1 X146.688 Y76.223 E46.04523
G1 X146.952 Y76.932 E46.11673
G1 X147.14 Y77.666 E46.18833
G1 X147.249 Y78.415 E46.25986
G1 X147.28 Y79.077 E46.32248
G1 X147.28 Y102.077 E48.49598
G1 X147.24 Y102.833 E48.56753
G1 X147.121 Y103.581 E48.6391
G1 X146.923 Y104.312 E48.71067
G1 X146.649 Y105.019 E48.78232
G1 X146.303 Y105.692 E48.85383
G1 X145.887 Y106.325 E48.92541
G1 X145.407 Y106.911 E48.997
G1 X144.868 Y107.443 E49.06856
G1 X144.276 Y107.915 E49.14011
G1 X143.637 Y108.322 E49.21171
G1 X142.959 Y108.66 E49.2833
G1 X142.25 Y108.924 E49.35479
G1 X141.516 Y109.112 E49.4264
G1 X140.767 Y109.221 E49.49792
G1 X140.105 Y109.252 E49.56055
G1 X83.106 Y109.252 E54.94695
G1 X82.35 Y109.212 E55.0185
G1 X81.602 Y109.093 E55.09007
G1 X80.871 Y108.895 E55.16164
G1 X80.164 Y108.621 E55.23329
G1 X79.491 Y108.275 E55.3048
G1 X78.858 Y107.859 E55.37638
G1 X78.272 Y107.379 E55.44797
G1 X77.74 Y106.84 E55.51954
G1 X77.268 Y106.248 E55.59108
G1 X76.861 Y105.609 E55.66268
G1 X76.523 Y104.931 E55.73427
G1 X76.259 Y104.222 E55.80576
G1 X76.071 Y103.488 E55.87737
G1 X75.962 Y102.739 E55.94889
G1 X75.931 Y102.077 E56.01152
G1 X75.931 Y79.077 E58.18502
G1 X75.971 Y78.321 E58.25656
G1 X76.09 Y77.573 E58.32814
G1 X76.288 Y76.842 E58.39971
G1 X76.562 Y76.135 E58.47136
G1 X76.908 Y75.462 E58.54287
G1 X77.324 Y74.829 E58.61445
G1 X77.804 Y74.243 E58.68603
G1 X78.343 Y73.711 E58.7576
G0 F4500 X78.685 Y73.877
G1 F1800 X79.273 Y73.43 E58.8274
G1 X79.906 Y73.049 E58.89722
G1 X80.576 Y72.738 E58.96702
G1 X81.276 Y72.502 E59.03683
G1 X81.997 Y72.343 E59.1066
G1 X82.732 Y72.262 E59.17648
G1 X83.106 Y72.252 E59.21184
G1 X140.105 Y72.252 E64.59824
G1 X140.843 Y72.292 E64.66808
G1 X141.571 Y72.411 E64.73779
G1 X142.283 Y72.609 E64.80763
G1 X142.969 Y72.882 E64.8774
G1 X143.622 Y73.228 E64.94724
G1 X144.234 Y73.642 E65.01706
G1 X144.797 Y74.12 E65.08685
G1 X145.305 Y74.656 E65.15664
G1 X145.752 Y75.244 E65.22644
G1 X146.133 Y75.877 E65.29626
G1 X146.444 Y76.547 E65.36606
G1 X146.68 Y77.247 E65.43587
G1 X146.839 Y77.968 E65.50564
G1 X146.92 Y78.703 E65.57552
G1 X146.93 Y79.077 E65.61088
G1 X146.93 Y102.077 E67.78438
G1 X146.89 Y102.815 E67.85422
G1 X146.771 Y103.543 E67.92393
G1 X146.573 Y104.255 E67.99377
G1 X146.3 Y104.941 E68.06354
G1 X145.954 Y105.594 E68.13337
G1 X145.54 Y106.206 E68.2032
G1 X145.062 Y106.769 E68.27299
G1 X144.526 Y107.277 E68.34278
G1 X143.938 Y107.724 E68.41258
G1 X143.305 Y108.105 E68.48239
G1 X142.635 Y108.416 E68.5522
G1 X141.935 Y108.652 E68.62201
G1 X141.214 Y108.811 E68.69178
G1 X140.479 Y108.892 E68.76166
G1 X140.105 Y108.902 E68.79701
G1 X83.106 Y108.902 E74.18342
G1 X82.368 Y108.862 E74.25326
G1 X81.64 Y108.743 E74.32297
G1 X80.928 Y108.545 E74.39281
G1 X80.242 Y108.272 E74.46258
G1 X79.589 Y107.926 E74.53241
G1 X78.977 Y107.512 E74.60224
G1 X78.414 Y107.034 E74.67203
G1 X77.906 Y106.498 E74.74182
G1 X77.459 Y105.91 E74.81162
G1 X77.078 Y105.277 E74.88143
G1 X76.767 Y104.607 E74.95124
G1 X76.531 Y103.907 E75.02105
G1 X76.372 Y103.186 E75.09082
G1 X76.291 Y102.451 E75.1607
G1 X76.281 Y102.077 E75.19605
G1 X76.281 Y79.077 E77.36955
G1 X76.321 Y78.339 E77.43939
G1 X76.44 Y77.611 E77.5091
G1 X76.638 Y76.899 E77.57894
G1 X76.911 Y76.213 E77.64871
G1 X77.257 Y75.56 E77.71855
G1 X77.671 Y74.948 E77.78837
G1 X78.149 Y74.385 E77.85817
G1 X78.685 Y73.877 E77.92795
G0 F4500 X79.027 Y74.048
G1 F1800 X79.61 Y73.627 E77.99591
G1 X80.237 Y73.273 E78.06395
G1 X80.898 Y72.99 E78.1319
G1 X81.587 Y72.783 E78.19989
G1 X82.295 Y72.653 E78.26791
G1 X83.106 Y72.602 E78.3447
G1 X140.105 Y72.602 E83.73111
G1 X140.823 Y72.642 E83.79906
G1 X141.533 Y72.761 E83.86709
G1 X142.225 Y72.959 E83.93511
G1 X142.89 Y73.232 E84.00304
G1 X143.522 Y73.577 E84.07109
G1 X144.111 Y73.99 E84.13907
G1 X144.65 Y74.466 E84.20702
G1 X145.134 Y74.998 E84.27499
G1 X145.555 Y75.581 E84.34295
G1 X145.909 Y76.208 E84.41099
G1 X146.192 Y76.869 E84.47894
G1 X146.399 Y77.558 E84.54692
G1 X146.529 Y78.266 E84.61495
G1 X146.58 Y79.077 E84.69174
G1 X146.58 Y102.077 E86.86524
G1 X146.54 Y102.795 E86.93319
G1 X146.421 Y103.505 E87.00122
G1 X146.223 Y104.197 E87.06924
G1 X145.95 Y104.862 E87.13717
G1 X145.605 Y105.494 E87.20522
G1 X145.192 Y106.083 E87.2732
G1 X144.716 Y106.622 E87.34115
G1 X144.184 Y107.106 E87.40912
G1 X143.601 Y107.527 E87.47708
G1 X142.974 Y107.881 E87.54512
G1 X142.313 Y108.164 E87.61307
G1 X141.624 Y108.371 E87.68105
G1 X140.916 Y108.501 E87.74908
G1 X140.105 Y108.552 E87.82587
G1 X83.106 Y108.552 E93.21227
G1 X82.388 Y108.512 E93.28023
G1 X81.678 Y108.393 E93.34826
G1 X80.986 Y108.195 E93.41628
G1 X80.321 Y107.922 E93.48421
G1 X79.689 Y107.577 E93.55225
G1 X79.1 Y107.164 E93.62023
G1 X78.561 Y106.688 E93.68819
G1 X78.077 Y106.156 E93.75616
G1 X77.656 Y105.573 E93.82411
G1 X77.302 Y104.946 E93.89216
G1 X77.019 Y104.285 E93.9601
G1 X76.812 Y103.596 E94.02809
G1 X76.682 Y102.888 E94.09611
G1 X76.631 Y102.077 E94.1729
G1 X76.631 Y79.077 E96.3464
G1 X76.671 Y78.359 E96.41436
G1 X76.79 Y77.649 E96.48239
G1 X76.988 Y76.957 E96.55041
G1 X77.261 Y76.292 E96.61834
G1 X77.606 Y75.66 E96.68639
G1 X78.019 Y75.071 E96.75437
G1 X78.495 Y74.532 E96.82232
G1 X79.027 Y74.048 E96.89029
G0 F4500 X79.368 Y74.225
G1 F1800 X79.946 Y73.83 E96.95644
G1 X80.565 Y73.504 E97.02256
G1 X81.217 Y73.25 E97.08868
G1 X81.894 Y73.073 E97.15481
G1 X82.587 Y72.974 E97.22096
G1 X83.106 Y72.952 E97.27005
G1 X140.105 Y72.952 E102.65646
G1 X140.804 Y72.992 E102.72262
G1 X141.493 Y73.111 E102.78869
G1 X142.164 Y73.309 E102.85481
G1 X142.809 Y73.581 E102.92096
G1 X143.418 Y73.925 E102.98705
G1 X143.984 Y74.337 E103.05321
G1 X144.499 Y74.81 E103.11929
G1 X144.957 Y75.339 E103.18541
G1 X145.352 Y75.917 E103.25157
G1 X145.678 Y76.536 E103.31768
G1 X145.932 Y77.188 E103.38381
G1 X146.109 Y77.865 E103.44993
G1 X146.208 Y78.558 E103.51609
G1 X146.23 Y79.077 E103.56518
G1 X146.23 Y102.077 E105.73868
G1 X146.19 Y102.776 E105.80484
G1 X146.071 Y103.465 E105.87091
G1 X145.873 Y104.136 E105.93703
G1 X145.601 Y104.781 E106.00318
G1 X145.257 Y105.39 E106.06927
G1 X144.845 Y105.956 E106.13543
G1 X144.372 Y106.471 E106.20151
G1 X143.843 Y106.929 E106.26763
G1 X143.265 Y107.324 E106.33379
G1 X142.646 Y107.65 E106.3999
G1 X141.994 Y107.904 E106.46603
G1 X141.317 Y108.081 E106.53215
G1 X140.624 Y108.18 E106.59831
G1 X140.105 Y108.202 E106.6474
G1 X83.106 Y108.202 E112.0338
G1 X82.407 Y108.162 E112.09997
G1 X81.718 Y108.043 E112.16604
G1 X81.047 Y107.845 E112.23215
G1 X80.402 Y107.573 E112.2983
G1 X79.793 Y107.229 E112.3644
G1 X79.227 Y106.817 E112.43056
G1 X78.712 Y106.344 E112.49664
G1 X78.254 Y105.815 E112.56276
G1 X77.859 Y105.237 E112.62892
G1 X77.533 Y104.618 E112.69503
G1 X77.279 Y103.966 E112.76115
G1 X77.102 Y103.289 E112.82728
G1 X77.003 Y102.596 E112.89344
G1 X76.981 Y102.077 E112.94252
G1 X76.981 Y79.077 E115.11602
G1 X77.021 Y78.378 E115.18219
G1 X77.14 Y77.689 E115.24826
G1 X77.338 Y77.018 E115.31438
G1 X77.61 Y76.373 E115.38053
G1 X77.954 Y75.764 E115.44662
G1 X78.366 Y75.198 E115.51278
G1 X78.839 Y74.683 E115.57886
G1 X79.368 Y74.225 E115.64498
G0 F4500 X79.708 Y74.408
G1 F1800 X80.28 Y74.041 E115.70921
G1 X80.891 Y73.744 E115.77341
G1 X81.533 Y73.52 E115.83766
G1 X82.196 Y73.374 E115.90182
G1 X83.106 Y73.302 E115.98808
G1 X140.105 Y73.302 E121.37449
G1 X140.783 Y73.342 E121.43867
G1 X141.452 Y73.461 E121.50288
G1 X142.102 Y73.658 E121.56706
G1 X142.725 Y73.93 E121.6313
G1 X143.311 Y74.274 E121.69552
G1 X143.853 Y74.684 E121.75974
G1 X144.343 Y75.154 E121.8239
G1 X144.774 Y75.679 E121.88809
G1 X145.141 Y76.251 E121.95232
G1 X145.438 Y76.862 E122.01652
G1 X145.662 Y77.504 E122.08077
G1 X145.808 Y78.167 E122.14493
G1 X145.88 Y79.077 E122.23119
G1 X145.88 Y102.077 E124.40469
G1 X145.84 Y102.755 E124.46887
G1 X145.721 Y103.424 E124.53309
G1 X145.524 Y104.074 E124.59727
G1 X145.252 Y104.697 E124.66151
G1 X144.908 Y105.283 E124.72572
G1 X144.498 Y105.825 E124.78995
G1 X144.028 Y106.315 E124.85411
G1 X143.503 Y106.746 E124.9183
G1 X142.931 Y107.113 E124.98252
G1 X142.32 Y107.41 E125.04672
G1 X141.678 Y107.634 E125.11098
G1 X141.015 Y107.78 E125.17513
G1 X140.105 Y107.852 E125.2614
G1 X83.106 Y107.852 E130.6478
G1 X82.428 Y107.812 E130.71198
G1 X81.759 Y107.693 E130.7762
G1 X81.109 Y107.496 E130.84038
G1 X80.486 Y107.224 E130.90462
G1 X79.9 Y106.88 E130.96883
G1 X79.358 Y106.47 E131.03306
G1 X78.868 Y106 E131.09722
G1 X78.437 Y105.475 E131.16141
G1 X78.07 Y104.903 E131.22563
G1 X77.773 Y104.292 E131.28983
G1 X77.549 Y103.65 E131.35409
G1 X77.403 Y102.987 E131.41824
G1 X77.331 Y102.077 E131.50451
G1 X77.331 Y79.077 E133.67801
G1 X77.371 Y78.399 E133.74219
G1 X77.49 Y77.73 E133.8064
G1 X77.687 Y77.08 E133.87059
G1 X77.959 Y76.457 E133.93483
G1 X78.303 Y75.871 E133.99904
G1 X78.713 Y75.329 E134.06326
G1 X79.183 Y74.839 E134.12742
G1 X79.708 Y74.408 E134.19161
G0 F4500 X80.047 Y74.597
G1 F1800 X80.612 Y74.259 E134.25383
G1 X81.214 Y73.993 E134.31603
G1 X81.844 Y73.801 E134.37826
G1 X82.492 Y73.687 E134.44044
G1 X83.106 Y73.652 E134.49856
G1 X140.105 Y73.652 E139.88496
G1 X140.762 Y73.692 E139.94716
G1 X141.41 Y73.811 E140.00942
G1 X142.038 Y74.008 E140.07162
G1 X142.638 Y74.28 E140.13388
G1 X143.201 Y74.622 E140.19613
G1 X143.718 Y75.03 E140.25836
G1 X144.181 Y75.497 E140.32051
G1 X144.585 Y76.018 E140.38281
G1 X144.923 Y76.583 E140.44503
G1 X145.189 Y77.185 E140.50722
G1 X145.381 Y77.815 E140.56946
G1 X145.495 Y78.463 E140.63164
G1 X145.53 Y79.077 E140.68976
G1 X145.53 Y102.077 E142.86326
G1 X145.49 Y102.734 E142.92546
G1 X145.371 Y103.382 E142.98772
G1 X145.174 Y104.01 E143.04992
G1 X144.902 Y104.61 E143.11217
G1 X144.56 Y105.173 E143.17442
G1 X144.152 Y105.69 E143.23666
G1 X143.685 Y106.153 E143.2988
G1 X143.164 Y106.557 E143.3611
G1 X142.599 Y106.895 E143.42332
G1 X141.997 Y107.161 E143.48552
G1 X141.367 Y107.353 E143.54776
G1 X140.719 Y107.467 E143.60993
G1 X140.105 Y107.502 E143.66805
G1 X83.106 Y107.502 E149.05445
G1 X82.449 Y107.462 E149.11666
G1 X81.801 Y107.343 E149.17892
G1 X81.173 Y107.146 E149.24111
G1 X80.573 Y106.874 E149.30337
G1 X80.01 Y106.532 E149.36562
G1 X79.493 Y106.124 E149.42786
G1 X79.03 Y105.657 E149.49
G1 X78.626 Y105.136 E149.5523
G1 X78.288 Y104.571 E149.61452
G1 X78.022 Y103.969 E149.67672
G1 X77.83 Y103.339 E149.73895
G1 X77.716 Y102.691 E149.80113
G1 X77.681 Y102.077 E149.85925
G1 X77.681 Y79.077 E152.03275
G1 X77.721 Y78.42 E152.09495
G1 X77.84 Y77.772 E152.15721
G1 X78.037 Y77.144 E152.21941
G1 X78.309 Y76.544 E152.28166
G1 X78.651 Y75.981 E152.34391
G1 X79.059 Y75.464 E152.40615
G1 X79.526 Y75.001 E152.46829
G1 X80.047 Y74.597 E152.5306
G0 F4500 X80.384 Y74.794
G1 F1800 X80.941 Y74.487 E152.5907
G1 X81.533 Y74.252 E152.65089
G1 X82.15 Y74.093 E152.7111
G1 X82.782 Y74.012 E152.77131
G1 X83.106 Y74.002 E152.80194
G1 X140.105 Y74.002 E158.18835
G1 X140.741 Y74.042 E158.24857
G1 X141.366 Y74.161 E158.30869
G1 X141.972 Y74.358 E158.36891
G1 X142.548 Y74.629 E158.42907
