;START_OF_HEADER
;HEADER_VERSION:0.1
;FLAVOR:Griffin
;GENERATOR.NAME:Cura_SteamEngine
;GENERATOR.VERSION:2.4.0
;GENERATOR.BUILD_DATE:2017-02-13
;TARGET_MACHINE.NAME:Ultimaker 3 Extended
;EXTRUDER_TRAIN.0.INITIAL_TEMPERATURE:205
;EXTRUDER_TRAIN.0.MATERIAL.VOLUME_USED:10278
;EXTRUDER_TRAIN.0.MATERIAL.GUID:506c9f0d-e3aa-4bd4-b2d2-23e2425b1aa9
;EXTRUDER_TRAIN.0.NOZZLE.DIAMETER:0.4
;BUILD_PLATE.INITIAL_TEMPERATURE:60
;PRINT.TIME:7522
;PRINT.SIZE.MIN.X:74.476
;PRINT.SIZE.MIN.Y:6
;PRINT.SIZE.MIN.Z:0.27
;PRINT.SIZE.MAX.X:170
;PRINT.SIZE.MAX.Y:134.325
;PRINT.SIZE.MAX.Z:20.82
;END_OF_HEADER
;Generated with Cura_SteamEngine 2.4.0

T0
G92 E0

M109 S205
G0 F15000 X170 Y6 Z2
G280
G1 F1500 E-6.5
;LAYER_COUNT:138
;LAYER:0
M107
M204 S625
M205 X6
G1 Z4
G0 F3750 X133.447 Y83.985 Z2.27
M204 S500
M205 X5
;TYPE:SKIRT
G1 Z0.27
G1 F1500 E0
G1 F1200 X133.861 Y83.373 E0.01095
G1 X134.339 Y82.81 E0.02189
G1 X134.875 Y82.302 E0.03282
G1 X135.462 Y81.854 E0.04376
G1 X136.095 Y81.473 E0.05471
G1 X136.765 Y81.162 E0.06565
G1 X137.465 Y80.926 E0.07659
G1 X138.186 Y80.766 E0.08753
G1 X138.92 Y80.685 E0.09847
G1 X139.297 Y80.675 E0.10406
G1 X143.295 Y80.675 E0.16328
G1 X144.033 Y80.715 E0.17423
G1 X144.761 Y80.834 E0.18516
G1 X145.473 Y81.032 E0.1961
G1 X146.159 Y81.305 E0.20704
G1 X146.812 Y81.651 E0.21799
G1 X147.424 Y82.065 E0.22893
G1 X147.987 Y82.543 E0.23987
G1 X148.495 Y83.079 E0.25081
G1 X148.942 Y83.667 E0.26176
G1 X149.323 Y84.3 E0.2727
G1 X149.634 Y84.97 E0.28364
G1 X149.87 Y85.67 E0.29458
G1 X150.029 Y86.391 E0.30552
G1 X150.11 Y87.126 E0.31648
G1 X150.12 Y87.498 E0.32199
G1 X150.121 Y90.498 E0.36643
G1 X150.081 Y91.235 E0.37736
G1 X149.962 Y91.964 E0.3883
G1 X149.765 Y92.676 E0.39925
G1 X149.492 Y93.362 E0.41018
G1 X149.146 Y94.015 E0.42113
G1 X148.732 Y94.627 E0.43208
G1 X148.254 Y95.19 E0.44302
G1 X147.718 Y95.698 E0.45396
G1 X147.131 Y96.146 E0.46489
G1 X146.498 Y96.527 E0.47584
G1 X145.828 Y96.838 E0.48678
G1 X145.128 Y97.074 E0.49772
G1 X144.407 Y97.234 E0.50866
G1 X143.673 Y97.315 E0.5196
G1 X143.296 Y97.325 E0.52519
G1 X139.298 Y97.325 E0.58441
G1 X138.56 Y97.285 E0.59536
G1 X137.832 Y97.166 E0.60629
G1 X137.12 Y96.968 E0.61724
G1 X136.434 Y96.695 E0.62817
G1 X135.781 Y96.349 E0.63912
G1 X135.169 Y95.935 E0.65006
G1 X134.606 Y95.457 E0.661
G1 X134.098 Y94.921 E0.67194
G1 X133.651 Y94.333 E0.68289
G1 X133.27 Y93.7 E0.69383
G1 X132.959 Y93.03 E0.70477
G1 X132.723 Y92.33 E0.71571
G1 X132.564 Y91.609 E0.72665
G1 X132.483 Y90.874 E0.73761
G1 X132.473 Y90.502 E0.74312
G1 X132.472 Y87.502 E0.78756
G1 X132.512 Y86.765 E0.79849
G1 X132.631 Y86.036 E0.80943
G1 X132.828 Y85.324 E0.82038
G1 X133.101 Y84.638 E0.83131
G1 X133.447 Y83.985 E0.84226
M204 S625
M205 X6
G0 F3750 X133.796 Y84.085
M204 S500
M205 X5
G1 F1200 X134.208 Y83.496 E0.85291
G1 X134.684 Y82.956 E0.86357
G1 X135.217 Y82.472 E0.87424
G1 X135.8 Y82.051 E0.88489
G1 X136.426 Y81.696 E0.89555
G1 X137.087 Y81.414 E0.9062
G1 X137.776 Y81.206 E0.91686
G1 X138.484 Y81.076 E0.92752
G1 X139.297 Y81.025 E0.93959
G1 X143.295 Y81.025 E0.99881
G1 X144.013 Y81.065 E1.00946
G1 X144.723 Y81.184 E1.02013
G1 X145.415 Y81.382 E1.03079
G1 X146.08 Y81.655 E1.04144
G1 X146.712 Y82 E1.0521
G1 X147.301 Y82.413 E1.06276
G1 X147.84 Y82.889 E1.07341
G1 X148.324 Y83.421 E1.08407
G1 X148.745 Y84.004 E1.09472
G1 X149.099 Y84.631 E1.10538
G1 X149.382 Y85.292 E1.11604
G1 X149.589 Y85.981 E1.12669
G1 X149.719 Y86.689 E1.13736
G1 X149.77 Y87.498 E1.14936
G1 X149.771 Y90.498 E1.1938
G1 X149.731 Y91.216 E1.20446
G1 X149.612 Y91.926 E1.21512
G1 X149.415 Y92.618 E1.22578
G1 X149.142 Y93.283 E1.23643
G1 X148.797 Y93.915 E1.24709
G1 X148.385 Y94.504 E1.25774
G1 X147.909 Y95.044 E1.2684
G1 X147.376 Y95.528 E1.27907
G1 X146.793 Y95.949 E1.28972
G1 X146.167 Y96.304 E1.30038
G1 X145.506 Y96.586 E1.31103
G1 X144.817 Y96.794 E1.32169
G1 X144.109 Y96.924 E1.33235
G1 X143.296 Y96.975 E1.34442
G1 X139.298 Y96.975 E1.40364
G1 X138.58 Y96.935 E1.4143
G1 X137.87 Y96.816 E1.42496
G1 X137.178 Y96.618 E1.43562
G1 X136.513 Y96.345 E1.44627
G1 X135.881 Y96 E1.45694
G1 X135.292 Y95.587 E1.46759
G1 X134.753 Y95.111 E1.47824
G1 X134.269 Y94.579 E1.4889
G1 X133.848 Y93.996 E1.49955
G1 X133.494 Y93.369 E1.51022
G1 X133.211 Y92.708 E1.52087
G1 X133.004 Y92.019 E1.53153
G1 X132.874 Y91.311 E1.54219
G1 X132.823 Y90.502 E1.5542
G1 X132.822 Y87.502 E1.59864
G1 X132.862 Y86.784 E1.60929
G1 X132.981 Y86.074 E1.61995
G1 X133.178 Y85.382 E1.63061
G1 X133.451 Y84.717 E1.64126
G1 X133.796 Y84.085 E1.65193
M204 S625
M205 X6
G0 F3750 X134.144 Y84.189
M204 S500
M205 X5
G1 F1200 X134.556 Y83.623 E1.6623
G1 X135.029 Y83.107 E1.67267
G1 X135.558 Y82.649 E1.68303
G1 X136.135 Y82.254 E1.69339
G1 X136.754 Y81.928 E1.70375
G1 X137.406 Y81.674 E1.71412
G1 X138.083 Y81.497 E1.72448
G1 X138.776 Y81.397 E1.73486
G1 X139.297 Y81.375 E1.74258
G1 X143.295 Y81.375 E1.8018
G1 X143.994 Y81.415 E1.81217
G1 X144.683 Y81.534 E1.82253
G1 X145.354 Y81.732 E1.8329
G1 X145.999 Y82.004 E1.84327
G1 X146.608 Y82.348 E1.85363
G1 X147.174 Y82.76 E1.864
G1 X147.689 Y83.233 E1.87435
G1 X148.147 Y83.762 E1.88472
G1 X148.542 Y84.34 E1.89509
G1 X148.868 Y84.959 E1.90545
G1 X149.122 Y85.611 E1.91582
G1 X149.299 Y86.288 E1.92618
G1 X149.398 Y86.981 E1.93655
G1 X149.42 Y87.498 E1.94422
G1 X149.421 Y90.498 E1.98866
G1 X149.381 Y91.197 E1.99903
G1 X149.262 Y91.886 E2.00939
G1 X149.065 Y92.557 E2.01975
G1 X148.793 Y93.202 E2.03012
G1 X148.449 Y93.811 E2.04048
G1 X148.037 Y94.377 E2.05085
G1 X147.564 Y94.893 E2.06122
G1 X147.035 Y95.351 E2.07158
G1 X146.458 Y95.746 E2.08194
G1 X145.839 Y96.072 E2.09231
G1 X145.187 Y96.326 E2.10267
G1 X144.51 Y96.503 E2.11304
G1 X143.817 Y96.603 E2.12341
G1 X143.296 Y96.625 E2.13113
G1 X139.298 Y96.625 E2.19036
G1 X138.599 Y96.585 E2.20073
G1 X137.91 Y96.466 E2.21109
G1 X137.239 Y96.268 E2.22145
G1 X136.594 Y95.996 E2.23182
G1 X135.985 Y95.652 E2.24218
G1 X135.419 Y95.24 E2.25255
G1 X134.904 Y94.767 E2.26291
G1 X134.446 Y94.238 E2.27327
G1 X134.051 Y93.66 E2.28364
G1 X133.725 Y93.041 E2.29401
G1 X133.471 Y92.389 E2.30437
G1 X133.294 Y91.712 E2.31474
G1 X133.195 Y91.019 E2.32511
G1 X133.173 Y90.502 E2.33277
G1 X133.172 Y87.502 E2.37721
G1 X133.212 Y86.803 E2.38758
G1 X133.331 Y86.114 E2.39794
G1 X133.528 Y85.443 E2.4083
G1 X133.8 Y84.798 E2.41867
G1 X134.144 Y84.189 E2.42903
M204 S625
M205 X6
G0 F3750 X134.493 Y84.295
M204 S500
M205 X5
G1 F1200 X134.902 Y83.753 E2.43909
G1 X135.373 Y83.263 E2.44916
G1 X135.897 Y82.832 E2.45921
G1 X136.469 Y82.465 E2.46928
G1 X137.08 Y82.167 E2.47935
G1 X137.722 Y81.944 E2.48941
G1 X138.385 Y81.797 E2.49947
G1 X139.297 Y81.725 E2.51302
G1 X143.295 Y81.725 E2.57225
G1 X143.973 Y81.765 E2.58231
G1 X144.642 Y81.884 E2.59237
G1 X145.292 Y82.081 E2.60244
G1 X145.915 Y82.353 E2.61251
G1 X146.501 Y82.697 E2.62257
G1 X147.043 Y83.107 E2.63264
G1 X147.533 Y83.577 E2.6427
G1 X147.964 Y84.102 E2.65276
G1 X148.331 Y84.674 E2.66283
G1 X148.628 Y85.285 E2.67289
G1 X148.852 Y85.927 E2.68296
G1 X148.998 Y86.59 E2.69302
G1 X149.07 Y87.498 E2.70651
G1 X149.071 Y90.498 E2.75095
G1 X149.031 Y91.176 E2.76101
G1 X148.912 Y91.845 E2.77108
G1 X148.715 Y92.495 E2.78114
G1 X148.443 Y93.118 E2.79121
G1 X148.1 Y93.705 E2.80128
G1 X147.691 Y94.247 E2.81134
G1 X147.22 Y94.737 E2.82141
G1 X146.696 Y95.168 E2.83146
G1 X146.124 Y95.535 E2.84152
G1 X145.513 Y95.833 E2.85159
G1 X144.871 Y96.056 E2.86166
G1 X144.208 Y96.203 E2.87172
G1 X143.296 Y96.275 E2.88527
G1 X139.298 Y96.275 E2.9445
G1 X138.62 Y96.235 E2.95456
G1 X137.951 Y96.116 E2.96462
G1 X137.301 Y95.919 E2.97468
G1 X136.678 Y95.647 E2.98475
G1 X136.092 Y95.303 E2.99482
G1 X135.55 Y94.893 E3.00489
G1 X135.06 Y94.423 E3.01495
G1 X134.629 Y93.898 E3.02501
G1 X134.262 Y93.326 E3.03507
G1 X133.965 Y92.715 E3.04514
G1 X133.741 Y92.073 E3.05521
G1 X133.595 Y91.41 E3.06527
G1 X133.523 Y90.502 E3.07876
G1 X133.522 Y87.502 E3.1232
G1 X133.562 Y86.824 E3.13326
G1 X133.681 Y86.155 E3.14333
G1 X133.878 Y85.505 E3.15339
G1 X134.15 Y84.882 E3.16346
G1 X134.493 Y84.295 E3.17353
M204 S625
M205 X6
G0 F3750 X134.841 Y84.406
M204 S500
M205 X5
G1 F1200 X135.249 Y83.889 E3.18328
G1 X135.716 Y83.425 E3.19304
G1 X136.236 Y83.021 E3.20279
G1 X136.801 Y82.683 E3.21254
G1 X137.403 Y82.416 E3.2223
G1 X138.033 Y82.224 E3.23206
G1 X138.682 Y82.11 E3.24182
G1 X139.297 Y82.075 E3.25094
G1 X143.295 Y82.075 E3.31016
G1 X143.952 Y82.115 E3.31992
G1 X144.6 Y82.234 E3.32967
G1 X145.228 Y82.431 E3.33942
G1 X145.828 Y82.703 E3.34918
G1 X146.391 Y83.045 E3.35894
G1 X146.908 Y83.453 E3.3687
G1 X147.371 Y83.92 E3.37844
G1 X147.775 Y84.441 E3.3882
G1 X148.113 Y85.006 E3.39796
G1 X148.379 Y85.608 E3.40771
G1 X148.571 Y86.238 E3.41746
G1 X148.685 Y86.886 E3.42721
G1 X148.72 Y87.498 E3.43629
G1 X148.721 Y90.498 E3.48073
G1 X148.681 Y91.155 E3.49048
G1 X148.562 Y91.803 E3.50024
G1 X148.365 Y92.432 E3.51
G1 X148.094 Y93.031 E3.51974
G1 X147.752 Y93.594 E3.5295
G1 X147.344 Y94.111 E3.53926
G1 X146.877 Y94.575 E3.54901
G1 X146.357 Y94.979 E3.55876
G1 X145.792 Y95.317 E3.56852
G1 X145.19 Y95.584 E3.57827
G1 X144.56 Y95.776 E3.58803
G1 X143.911 Y95.89 E3.59779
G1 X143.296 Y95.925 E3.60691
G1 X139.298 Y95.925 E3.66614
G1 X138.641 Y95.885 E3.67589
G1 X137.993 Y95.766 E3.68565
G1 X137.365 Y95.569 E3.6954
G1 X136.765 Y95.297 E3.70516
G1 X136.202 Y94.955 E3.71491
G1 X135.685 Y94.547 E3.72467
G1 X135.222 Y94.08 E3.73441
G1 X134.818 Y93.559 E3.74418
G1 X134.48 Y92.994 E3.75393
G1 X134.214 Y92.392 E3.76368
G1 X134.022 Y91.762 E3.77344
G1 X133.908 Y91.114 E3.78318
G1 X133.873 Y90.502 E3.79226
G1 X133.872 Y87.502 E3.8367
G1 X133.912 Y86.845 E3.84645
G1 X134.031 Y86.197 E3.85621
G1 X134.228 Y85.568 E3.86598
G1 X134.499 Y84.969 E3.87572
G1 X134.841 Y84.406 E3.88547
M204 S625
M205 X6
G0 F3750 X135.189 Y84.52
M204 S500
M205 X5
G1 F1200 X135.594 Y84.029 E3.8949
G1 X136.058 Y83.593 E3.90433
G1 X136.573 Y83.218 E3.91377
G1 X137.131 Y82.91 E3.92321
G1 X137.723 Y82.675 E3.93265
G1 X138.339 Y82.516 E3.94207
G1 X138.971 Y82.435 E3.95151
G1 X139.297 Y82.425 E3.95634
G1 X143.295 Y82.425 E4.01557
G1 X143.931 Y82.465 E4.02501
G1 X144.556 Y82.584 E4.03443
G1 X145.162 Y82.781 E4.04387
G1 X145.738 Y83.052 E4.0533
G1 X146.276 Y83.393 E4.06273
G1 X146.767 Y83.799 E4.07217
G1 X147.203 Y84.263 E4.0816
G1 X147.578 Y84.778 E4.09104
G1 X147.885 Y85.335 E4.10046
G1 X148.12 Y85.927 E4.1099
G1 X148.279 Y86.544 E4.11934
G1 X148.36 Y87.176 E4.12877
G1 X148.37 Y87.498 E4.13355
G1 X148.371 Y90.498 E4.17799
G1 X148.331 Y91.134 E4.18743
G1 X148.212 Y91.76 E4.19687
G1 X148.016 Y92.365 E4.20629
G1 X147.745 Y92.942 E4.21573
G1 X147.404 Y93.48 E4.22516
G1 X146.999 Y93.971 E4.23459
G1 X146.535 Y94.407 E4.24402
G1 X146.02 Y94.782 E4.25346
G1 X145.462 Y95.09 E4.2629
G1 X144.87 Y95.325 E4.27234
G1 X144.254 Y95.484 E4.28176
G1 X143.622 Y95.565 E4.2912
G1 X143.296 Y95.575 E4.29603
G1 X139.298 Y95.575 E4.35526
G1 X138.662 Y95.535 E4.3647
G1 X138.037 Y95.416 E4.37412
G1 X137.431 Y95.219 E4.38356
G1 X136.855 Y94.948 E4.39299
G1 X136.317 Y94.607 E4.40243
G1 X135.826 Y94.201 E4.41186
G1 X135.39 Y93.737 E4.42129
G1 X135.015 Y93.222 E4.43073
G1 X134.708 Y92.665 E4.44015
G1 X134.473 Y92.073 E4.44959
G1 X134.314 Y91.456 E4.45903
G1 X134.233 Y90.824 E4.46846
G1 X134.223 Y90.502 E4.47324
G1 X134.222 Y87.502 E4.51768
G1 X134.262 Y86.866 E4.52712
G1 X134.381 Y86.24 E4.53656
G1 X134.577 Y85.635 E4.54598
G1 X134.848 Y85.058 E4.55542
G1 X135.189 Y84.52 E4.56486
M204 S625
M205 X6
G0 F3750 X135.537 Y84.639
M204 S500
M205 X5
G1 F1200 X135.94 Y84.175 E4.57396
G1 X136.4 Y83.768 E4.58306
G1 X136.908 Y83.423 E4.59215
G1 X137.458 Y83.148 E4.60126
G1 X138.038 Y82.946 E4.61036
G1 X138.64 Y82.821 E4.61947
G1 X139.297 Y82.775 E4.62923
G1 X143.295 Y82.775 E4.68845
G1 X143.908 Y82.815 E4.69755
G1 X144.511 Y82.934 E4.70665
G1 X145.093 Y83.131 E4.71576
G1 X145.645 Y83.401 E4.72486
G1 X146.157 Y83.741 E4.73396
G1 X146.621 Y84.144 E4.74307
G1 X147.028 Y84.604 E4.75216
G1 X147.373 Y85.113 E4.76127
G1 X147.648 Y85.662 E4.77037
G1 X147.85 Y86.243 E4.77948
G1 X147.974 Y86.844 E4.78857
G1 X148.02 Y87.498 E4.79828
G1 X148.021 Y90.498 E4.84272
G1 X147.981 Y91.112 E4.85184
G1 X147.862 Y91.714 E4.86093
G1 X147.666 Y92.297 E4.87004
G1 X147.396 Y92.849 E4.87914
G1 X147.056 Y93.361 E4.88825
G1 X146.653 Y93.825 E4.89735
G1 X146.193 Y94.232 E4.90645
G1 X145.685 Y94.577 E4.91555
G1 X145.135 Y94.852 E4.92465
G1 X144.555 Y95.054 E4.93375
G1 X143.953 Y95.179 E4.94286
G1 X143.296 Y95.225 E4.95262
G1 X139.298 Y95.225 E5.01184
G1 X138.685 Y95.185 E5.02094
G1 X138.082 Y95.066 E5.03004
G1 X137.5 Y94.869 E5.03915
G1 X136.948 Y94.599 E5.04825
G1 X136.436 Y94.259 E5.05735
G1 X135.972 Y93.856 E5.06646
G1 X135.565 Y93.396 E5.07556
G1 X135.22 Y92.887 E5.08466
G1 X134.945 Y92.338 E5.09376
G1 X134.743 Y91.757 E5.10287
G1 X134.619 Y91.156 E5.11196
G1 X134.573 Y90.502 E5.12167
G1 X134.572 Y87.502 E5.16611
G1 X134.612 Y86.888 E5.17523
G1 X134.731 Y86.286 E5.18432
G1 X134.927 Y85.703 E5.19343
G1 X135.197 Y85.151 E5.20253
G1 X135.537 Y84.639 E5.21164
M204 S625
M205 X6
G0 F3750 X135.884 Y84.763
M204 S500
M205 X5
G1 F1200 X136.284 Y84.328 E5.22039
G1 X136.739 Y83.95 E5.22915
G1 X137.241 Y83.638 E5.23791
G1 X137.781 Y83.396 E5.24667
G1 X138.348 Y83.229 E5.25543
G1 X138.933 Y83.14 E5.2642
G1 X139.297 Y83.125 E5.26959
G1 X143.295 Y83.125 E5.32882
G1 X143.885 Y83.165 E5.33758
G1 X144.464 Y83.284 E5.34633
G1 X145.022 Y83.48 E5.35509
G1 X145.548 Y83.75 E5.36385
G1 X146.033 Y84.088 E5.37261
G1 X146.468 Y84.488 E5.38136
G1 X146.845 Y84.944 E5.39013
G1 X147.158 Y85.446 E5.39889
G1 X147.399 Y85.985 E5.40764
G1 X147.566 Y86.553 E5.41641
G1 X147.655 Y87.137 E5.42516
G1 X147.67 Y87.499 E5.43052
G1 X147.671 Y90.499 E5.47496
G1 X147.631 Y91.088 E5.48371
G1 X147.512 Y91.668 E5.49248
G1 X147.316 Y92.226 E5.50124
G1 X147.047 Y92.752 E5.50999
G1 X146.709 Y93.237 E5.51875
G1 X146.309 Y93.672 E5.5275
G1 X145.854 Y94.05 E5.53627
G1 X145.352 Y94.362 E5.54502
G1 X144.812 Y94.604 E5.55379
G1 X144.245 Y94.771 E5.56254
G1 X143.66 Y94.86 E5.57131
G1 X143.296 Y94.875 E5.57671
G1 X139.298 Y94.875 E5.63593
G1 X138.708 Y94.835 E5.64469
G1 X138.129 Y94.716 E5.65345
G1 X137.571 Y94.52 E5.66221
G1 X137.045 Y94.25 E5.67096
G1 X136.56 Y93.912 E5.67972
G1 X136.125 Y93.512 E5.68848
G1 X135.748 Y93.056 E5.69724
G1 X135.435 Y92.554 E5.706
G1 X135.194 Y92.015 E5.71475
G1 X135.027 Y91.447 E5.72352
G1 X134.938 Y90.863 E5.73227
G1 X134.923 Y90.501 E5.73764
G1 X134.922 Y87.501 E5.78208
G1 X134.962 Y86.912 E5.79082
G1 X135.081 Y86.332 E5.79959
G1 X135.277 Y85.774 E5.80835
G1 X135.546 Y85.248 E5.81711
G1 X135.884 Y84.763 E5.82586
M204 S625
M205 X6
G0 F3750 X136.231 Y84.893
M204 S500
M205 X5
G1 F1200 X136.628 Y84.487 E5.83427
G1 X137.078 Y84.142 E5.84267
G1 X137.572 Y83.864 E5.85107
G1 X138.1 Y83.657 E5.85947
G1 X138.652 Y83.527 E5.86787
G1 X139.297 Y83.475 E5.87746
G1 X143.295 Y83.475 E5.93668
G1 X143.861 Y83.515 E5.94509
G1 X144.415 Y83.634 E5.95348
G1 X144.947 Y83.83 E5.96188
G1 X145.447 Y84.098 E5.97028
G1 X145.903 Y84.435 E5.97868
G1 X146.308 Y84.832 E5.98708
G1 X146.654 Y85.282 E5.99549
G1 X146.932 Y85.776 E6.00389
G1 X147.138 Y86.304 E6.01228
G1 X147.268 Y86.856 E6.02069
G1 X147.32 Y87.499 E6.03024
G1 X147.321 Y90.499 E6.07468
G1 X147.281 Y91.064 E6.08307
G1 X147.162 Y91.619 E6.09148
G1 X146.967 Y92.151 E6.09987
G1 X146.698 Y92.651 E6.10828
G1 X146.362 Y93.107 E6.11667
G1 X145.965 Y93.513 E6.12509
G1 X145.515 Y93.858 E6.13349
G1 X145.021 Y94.136 E6.14188
G1 X144.493 Y94.343 E6.15028
G1 X143.941 Y94.473 E6.15868
G1 X143.296 Y94.525 E6.16827
G1 X139.298 Y94.525 E6.22749
G1 X138.732 Y94.485 E6.2359
G1 X138.178 Y94.366 E6.24429
