;START_OF_HEADER
;HEADER_VERSION:0.1
;FLAVOR:Griffin
;GENERATOR.NAME:Cura_SteamEngine
;GENERATOR.VERSION:2.4.0
;GENERATOR.BUILD_DATE:2017-02-13
;TARGET_MACHINE.NAME:Ultimaker 3 Extended
;EXTRUDER_TRAIN.0.INITIAL_TEMPERATURE:205
;EXTRUDER_TRAIN.0.MATERIAL.VOLUME_USED:9148
;EXTRUDER_TRAIN.0.MATERIAL.GUID:506c9f0d-e3aa-4bd4-b2d2-23e2425b1aa9
;EXTRUDER_TRAIN.0.NOZZLE.DIAMETER:0.4
;BUILD_PLATE.INITIAL_TEMPERATURE:60
;PRINT.TIME:6354
;PRINT.SIZE.MIN.X:81.14
;PRINT.SIZE.MIN.Y:6
;PRINT.SIZE.MIN.Z:0.27
;PRINT.SIZE.MAX.X:170
;PRINT.SIZE.MAX.Y:146.729
;PRINT.SIZE.MAX.Z:10.92
;END_OF_HEADER
;Generated with Cura_SteamEngine 2.4.0

T0
G92 E0

M109 S205
G0 F15000 X170 Y6 Z2
G280
G1 F1500 E-6.5
;LAYER_COUNT:72
;LAYER:0
M107
M204 S625
M205 X6
G1 Z4
G0 F3750 X83.149 Y70.385 Z2.27
M204 S500
M205 X5
;TYPE:SKIRT
G1 Z0.27
G1 F1500 E0
G1 F1200 X83.685 Y69.877 E0.01094
G1 X84.273 Y69.43 E0.02188
G1 X84.906 Y69.049 E0.03283
G1 X85.576 Y68.738 E0.04377
G1 X86.276 Y68.502 E0.05471
G1 X86.997 Y68.343 E0.06565
G1 X87.732 Y68.262 E0.0766
G1 X88.106 Y68.252 E0.08214
G1 X145.105 Y68.252 E0.92649
G1 X145.843 Y68.292 E0.93744
G1 X146.571 Y68.411 E0.94836
G1 X147.283 Y68.609 E0.95931
G1 X147.969 Y68.882 E0.97025
G1 X148.622 Y69.228 E0.98119
G1 X149.234 Y69.642 E0.99214
G1 X149.797 Y70.12 E1.00308
G1 X150.305 Y70.656 E1.01402
G1 X150.752 Y71.244 E1.02496
G1 X151.133 Y71.877 E1.0359
G1 X151.444 Y72.547 E1.04685
G1 X151.68 Y73.247 E1.05779
G1 X151.839 Y73.968 E1.06873
G1 X151.92 Y74.703 E1.07968
G1 X151.93 Y75.077 E1.08522
G1 X151.93 Y98.077 E1.42593
G1 X151.89 Y98.815 E1.43688
G1 X151.771 Y99.543 E1.4478
G1 X151.573 Y100.255 E1.45875
G1 X151.3 Y100.941 E1.46969
G1 X150.954 Y101.594 E1.48064
G1 X150.54 Y102.206 E1.49158
G1 X150.062 Y102.769 E1.50252
G1 X149.526 Y103.277 E1.51346
G1 X148.938 Y103.724 E1.5244
G1 X148.305 Y104.105 E1.53535
G1 X147.635 Y104.416 E1.54629
G1 X146.935 Y104.652 E1.55723
G1 X146.214 Y104.811 E1.56817
G1 X145.479 Y104.892 E1.57912
G1 X145.105 Y104.902 E1.58466
G1 X88.106 Y104.902 E2.42901
G1 X87.368 Y104.862 E2.43996
G1 X86.64 Y104.743 E2.45088
G1 X85.928 Y104.545 E2.46183
G1 X85.242 Y104.272 E2.47277
G1 X84.589 Y103.926 E2.48371
G1 X83.977 Y103.512 E2.49466
G1 X83.414 Y103.034 E2.5056
G1 X82.906 Y102.498 E2.51654
G1 X82.459 Y101.91 E2.52748
G1 X82.078 Y101.277 E2.53843
G1 X81.767 Y100.607 E2.54937
G1 X81.531 Y99.907 E2.56031
G1 X81.372 Y99.186 E2.57125
G1 X81.291 Y98.451 E2.5822
G1 X81.281 Y98.077 E2.58774
G1 X81.281 Y75.077 E2.92845
G1 X81.321 Y74.339 E2.9394
G1 X81.44 Y73.611 E2.95032
G1 X81.638 Y72.899 E2.96127
G1 X81.911 Y72.213 E2.97221
G1 X82.257 Y71.56 E2.98316
G1 X82.671 Y70.948 E2.9941
G1 X83.149 Y70.385 E3.00504
M204 S625
M205 X6
G0 F3750 X83.495 Y70.532
M204 S500
M205 X5
G1 F1200 X84.027 Y70.048 E3.0157
G1 X84.61 Y69.627 E3.02635
G1 X85.237 Y69.273 E3.03701
G1 X85.898 Y68.99 E3.04767
G1 X86.587 Y68.783 E3.05832
G1 X87.295 Y68.653 E3.06899
G1 X88.106 Y68.602 E3.08102
G1 X145.105 Y68.602 E3.92537
G1 X145.823 Y68.642 E3.93602
G1 X146.533 Y68.761 E3.94668
G1 X147.225 Y68.959 E3.95735
G1 X147.89 Y69.232 E3.96799
G1 X148.522 Y69.577 E3.97866
G1 X149.111 Y69.99 E3.98932
G1 X149.65 Y70.466 E3.99997
G1 X150.134 Y70.998 E4.01062
G1 X150.555 Y71.581 E4.02128
G1 X150.909 Y72.208 E4.03194
G1 X151.192 Y72.869 E4.04259
G1 X151.399 Y73.558 E4.05325
G1 X151.529 Y74.266 E4.06391
G1 X151.58 Y75.077 E4.07595
G1 X151.58 Y98.077 E4.41666
G1 X151.54 Y98.795 E4.42731
G1 X151.421 Y99.505 E4.43797
G1 X151.223 Y100.197 E4.44864
G1 X150.95 Y100.862 E4.45928
G1 X150.605 Y101.494 E4.46995
G1 X150.192 Y102.083 E4.48061
G1 X149.716 Y102.622 E4.49126
G1 X149.184 Y103.106 E4.50191
G1 X148.601 Y103.527 E4.51256
G1 X147.974 Y103.881 E4.52323
G1 X147.313 Y104.164 E4.53388
G1 X146.624 Y104.371 E4.54454
G1 X145.916 Y104.501 E4.5552
G1 X145.105 Y104.552 E4.56724
G1 X88.106 Y104.552 E5.41158
G1 X87.388 Y104.512 E5.42224
G1 X86.678 Y104.393 E5.4329
G1 X85.986 Y104.195 E5.44356
G1 X85.321 Y103.922 E5.45421
G1 X84.689 Y103.577 E5.46488
G1 X84.1 Y103.164 E5.47553
G1 X83.561 Y102.688 E5.48619
G1 X83.077 Y102.156 E5.49684
G1 X82.656 Y101.573 E5.50749
G1 X82.302 Y100.946 E5.51816
G1 X82.019 Y100.285 E5.52881
G1 X81.812 Y99.596 E5.53947
G1 X81.682 Y98.888 E5.55013
G1 X81.631 Y98.077 E5.56217
G1 X81.631 Y75.077 E5.90287
G1 X81.671 Y74.359 E5.91353
G1 X81.79 Y73.649 E5.92419
G1 X81.988 Y72.957 E5.93485
G1 X82.261 Y72.292 E5.9455
G1 X82.606 Y71.66 E5.95617
G1 X83.019 Y71.071 E5.96682
G1 X83.495 Y70.532 E5.97748
M204 S625
M205 X6
G0 F3750 X83.839 Y70.683
M204 S500
M205 X5
G1 F1200 X84.368 Y70.225 E5.98784
G1 X84.946 Y69.83 E5.99821
G1 X85.565 Y69.504 E6.00857
G1 X86.217 Y69.25 E6.01894
G1 X86.894 Y69.073 E6.02931
G1 X87.587 Y68.974 E6.03968
G1 X88.106 Y68.952 E6.04737
G1 X145.105 Y68.952 E6.89171
G1 X145.804 Y68.992 E6.90209
G1 X146.493 Y69.111 E6.91244
G1 X147.164 Y69.309 E6.92281
G1 X147.809 Y69.581 E6.93318
G1 X148.418 Y69.925 E6.94354
G1 X148.984 Y70.337 E6.95391
G1 X149.499 Y70.81 E6.96427
G1 X149.957 Y71.339 E6.97463
G1 X150.352 Y71.917 E6.985
G1 X150.678 Y72.536 E6.99536
G1 X150.932 Y73.188 E7.00573
G1 X151.109 Y73.865 E7.0161
G1 X151.208 Y74.558 E7.02647
G1 X151.23 Y75.077 E7.03416
G1 X151.23 Y98.077 E7.37487
G1 X151.19 Y98.776 E7.38524
G1 X151.071 Y99.465 E7.3956
G1 X150.873 Y100.136 E7.40596
G1 X150.601 Y100.781 E7.41633
G1 X150.257 Y101.39 E7.42669
G1 X149.845 Y101.956 E7.43706
G1 X149.372 Y102.471 E7.44742
G1 X148.843 Y102.929 E7.45778
G1 X148.265 Y103.324 E7.46815
G1 X147.646 Y103.65 E7.47852
G1 X146.994 Y103.904 E7.48888
G1 X146.317 Y104.081 E7.49925
G1 X145.624 Y104.18 E7.50962
G1 X145.105 Y104.202 E7.51731
G1 X88.106 Y104.202 E8.36166
G1 X87.407 Y104.162 E8.37203
G1 X86.718 Y104.043 E8.38239
G1 X86.047 Y103.845 E8.39275
G1 X85.402 Y103.573 E8.40312
G1 X84.793 Y103.229 E8.41348
G1 X84.227 Y102.817 E8.42385
G1 X83.712 Y102.344 E8.43421
G1 X83.254 Y101.815 E8.44457
G1 X82.859 Y101.237 E8.45494
G1 X82.533 Y100.618 E8.46531
G1 X82.279 Y99.966 E8.47567
G1 X82.102 Y99.289 E8.48604
G1 X82.003 Y98.596 E8.49641
G1 X81.981 Y98.077 E8.5041
G1 X81.981 Y75.077 E8.84481
G1 X82.021 Y74.378 E8.85518
G1 X82.14 Y73.689 E8.86554
G1 X82.338 Y73.018 E8.8759
G1 X82.61 Y72.373 E8.88627
G1 X82.954 Y71.764 E8.89663
G1 X83.366 Y71.198 E8.907
G1 X83.839 Y70.683 E8.91736
M204 S625
M205 X6
G0 F3750 X84.183 Y70.839
M204 S500
M205 X5
G1 F1200 X84.708 Y70.408 E8.92742
G1 X85.28 Y70.041 E8.93749
G1 X85.891 Y69.744 E8.94755
G1 X86.533 Y69.52 E8.95763
G1 X87.196 Y69.374 E8.96768
G1 X88.106 Y69.302 E8.9812
G1 X145.105 Y69.302 E9.82555
G1 X145.783 Y69.342 E9.83561
G1 X146.452 Y69.461 E9.84568
G1 X147.102 Y69.658 E9.85574
G1 X147.725 Y69.93 E9.86581
G1 X148.311 Y70.274 E9.87587
G1 X148.853 Y70.684 E9.88594
G1 X149.343 Y71.154 E9.896
G1 X149.774 Y71.679 E9.90606
G1 X150.141 Y72.251 E9.91613
G1 X150.438 Y72.862 E9.92619
G1 X150.662 Y73.504 E9.93626
G1 X150.808 Y74.167 E9.94632
G1 X150.88 Y75.077 E9.95984
G1 X150.88 Y98.077 E10.30055
G1 X150.84 Y98.755 E10.31061
G1 X150.721 Y99.424 E10.32067
G1 X150.524 Y100.074 E10.33074
G1 X150.252 Y100.697 E10.34081
G1 X149.908 Y101.283 E10.35087
G1 X149.498 Y101.825 E10.36094
G1 X149.028 Y102.315 E10.371
G1 X148.503 Y102.746 E10.38106
G1 X147.931 Y103.113 E10.39113
G1 X147.32 Y103.41 E10.40119
G1 X146.678 Y103.634 E10.41126
G1 X146.015 Y103.78 E10.42132
G1 X145.105 Y103.852 E10.43484
G1 X88.106 Y103.852 E11.27918
G1 X87.428 Y103.812 E11.28925
G1 X86.759 Y103.693 E11.29931
G1 X86.109 Y103.496 E11.30937
G1 X85.486 Y103.224 E11.31944
G1 X84.9 Y102.88 E11.32951
G1 X84.358 Y102.47 E11.33957
G1 X83.868 Y102 E11.34963
G1 X83.437 Y101.475 E11.35969
G1 X83.07 Y100.903 E11.36976
G1 X82.773 Y100.292 E11.37983
G1 X82.549 Y99.65 E11.3899
G1 X82.403 Y98.987 E11.39995
G1 X82.331 Y98.077 E11.41348
G1 X82.331 Y75.077 E11.75418
G1 X82.371 Y74.399 E11.76424
G1 X82.49 Y73.73 E11.77431
G1 X82.687 Y73.08 E11.78437
G1 X82.959 Y72.457 E11.79444
G1 X83.303 Y71.871 E11.80451
G1 X83.713 Y71.329 E11.81457
G1 X84.183 Y70.839 E11.82463
M204 S625
M205 X6
G0 F3750 X84.526 Y71.001
M204 S500
M205 X5
G1 F1200 X85.047 Y70.597 E11.8344
G1 X85.612 Y70.259 E11.84415
G1 X86.214 Y69.993 E11.8539
G1 X86.844 Y69.801 E11.86366
G1 X87.492 Y69.687 E11.8734
G1 X88.106 Y69.652 E11.88251
G1 X145.105 Y69.652 E12.72686
G1 X145.762 Y69.692 E12.73661
G1 X146.41 Y69.811 E12.74637
G1 X147.038 Y70.008 E12.75612
G1 X147.638 Y70.28 E12.76587
G1 X148.201 Y70.622 E12.77563
G1 X148.718 Y71.03 E12.78539
G1 X149.181 Y71.497 E12.79513
G1 X149.585 Y72.018 E12.8049
G1 X149.923 Y72.583 E12.81465
G1 X150.189 Y73.185 E12.8244
G1 X150.381 Y73.815 E12.83415
G1 X150.495 Y74.463 E12.8439
G1 X150.53 Y75.077 E12.85301
G1 X150.53 Y98.077 E13.19372
G1 X150.49 Y98.734 E13.20347
G1 X150.371 Y99.382 E13.21323
G1 X150.174 Y100.01 E13.22298
G1 X149.902 Y100.61 E13.23274
G1 X149.56 Y101.173 E13.24249
G1 X149.152 Y101.69 E13.25225
G1 X148.685 Y102.153 E13.26199
G1 X148.164 Y102.557 E13.27176
G1 X147.599 Y102.895 E13.28151
G1 X146.997 Y103.161 E13.29126
G1 X146.367 Y103.353 E13.30102
G1 X145.719 Y103.467 E13.31076
G1 X145.105 Y103.502 E13.31987
G1 X88.106 Y103.502 E14.16422
G1 X87.449 Y103.462 E14.17397
G1 X86.801 Y103.343 E14.18373
G1 X86.173 Y103.146 E14.19348
G1 X85.573 Y102.874 E14.20324
G1 X85.01 Y102.532 E14.21299
G1 X84.493 Y102.124 E14.22275
G1 X84.03 Y101.657 E14.23249
G1 X83.626 Y101.136 E14.24226
G1 X83.288 Y100.571 E14.25201
G1 X83.022 Y99.969 E14.26176
G1 X82.83 Y99.339 E14.27152
G1 X82.716 Y98.691 E14.28126
G1 X82.681 Y98.077 E14.29037
G1 X82.681 Y75.077 E14.63108
G1 X82.721 Y74.42 E14.64083
G1 X82.84 Y73.772 E14.65059
G1 X83.037 Y73.144 E14.66034
G1 X83.309 Y72.544 E14.6701
G1 X83.651 Y71.981 E14.67985
G1 X84.059 Y71.464 E14.68961
G1 X84.526 Y71.001 E14.69935
M204 S625
M205 X6
G0 F3750 X84.869 Y71.169
M204 S500
M205 X5
G1 F1200 X85.384 Y70.794 E14.70879
G1 X85.941 Y70.487 E14.71821
G1 X86.533 Y70.252 E14.72765
G1 X87.15 Y70.093 E14.73708
G1 X87.782 Y70.012 E14.74652
G1 X88.106 Y70.002 E14.75132
G1 X145.105 Y70.002 E15.59567
G1 X145.741 Y70.042 E15.60511
G1 X146.366 Y70.161 E15.61453
G1 X146.972 Y70.358 E15.62397
G1 X147.548 Y70.629 E15.6334
G1 X148.086 Y70.97 E15.64284
G1 X148.577 Y71.376 E15.65227
G1 X149.013 Y71.84 E15.66171
G1 X149.388 Y72.355 E15.67114
G1 X149.695 Y72.912 E15.68056
G1 X149.93 Y73.504 E15.69
G1 X150.089 Y74.121 E15.69944
G1 X150.17 Y74.753 E15.70888
G1 X150.18 Y75.077 E15.71368
G1 X150.18 Y98.077 E16.05439
G1 X150.14 Y98.713 E16.06383
G1 X150.021 Y99.338 E16.07325
G1 X149.824 Y99.944 E16.08269
G1 X149.553 Y100.52 E16.09212
G1 X149.212 Y101.058 E16.10155
G1 X148.806 Y101.549 E16.11099
G1 X148.342 Y101.985 E16.12042
G1 X147.827 Y102.36 E16.12986
G1 X147.27 Y102.667 E16.13928
G1 X146.678 Y102.902 E16.14872
G1 X146.061 Y103.061 E16.15816
G1 X145.429 Y103.142 E16.16759
G1 X145.105 Y103.152 E16.1724
G1 X88.106 Y103.152 E17.01674
G1 X87.47 Y103.112 E17.02618
G1 X86.845 Y102.993 E17.0356
G1 X86.239 Y102.796 E17.04504
G1 X85.663 Y102.525 E17.05447
G1 X85.125 Y102.184 E17.06391
G1 X84.634 Y101.778 E17.07335
G1 X84.198 Y101.314 E17.08278
G1 X83.823 Y100.799 E17.09222
G1 X83.516 Y100.242 E17.10164
G1 X83.281 Y99.65 E17.11107
G1 X83.122 Y99.033 E17.12051
G1 X83.041 Y98.401 E17.12995
G1 X83.031 Y98.077 E17.13475
G1 X83.031 Y75.077 E17.47546
G1 X83.071 Y74.441 E17.4849
G1 X83.19 Y73.816 E17.49432
G1 X83.387 Y73.21 E17.50376
G1 X83.658 Y72.634 E17.51319
G1 X83.999 Y72.096 E17.52263
G1 X84.405 Y71.605 E17.53206
G1 X84.869 Y71.169 E17.5415
M204 S625
M205 X6
G0 F3750 X85.21 Y71.344
M204 S500
M205 X5
G1 F1200 X85.719 Y70.999 E17.5506
G1 X86.268 Y70.724 E17.5597
G1 X86.849 Y70.522 E17.56881
G1 X87.45 Y70.398 E17.5779
G1 X88.106 Y70.352 E17.58764
G1 X145.105 Y70.352 E18.43199
G1 X145.718 Y70.392 E18.44109
G1 X146.321 Y70.511 E18.45019
G1 X146.903 Y70.708 E18.45929
G1 X147.455 Y70.978 E18.4684
G1 X147.967 Y71.318 E18.4775
G1 X148.431 Y71.721 E18.48661
G1 X148.838 Y72.181 E18.4957
G1 X149.183 Y72.69 E18.50481
G1 X149.458 Y73.239 E18.51391
G1 X149.66 Y73.82 E18.52302
G1 X149.784 Y74.421 E18.53211
G1 X149.83 Y75.077 E18.54185
G1 X149.83 Y98.077 E18.88256
G1 X149.79 Y98.69 E18.89166
G1 X149.671 Y99.293 E18.90076
G1 X149.474 Y99.875 E18.90986
G1 X149.204 Y100.427 E18.91897
G1 X148.864 Y100.939 E18.92807
G1 X148.461 Y101.403 E18.93718
G1 X148.001 Y101.81 E18.94627
G1 X147.492 Y102.155 E18.95538
G1 X146.943 Y102.43 E18.96448
G1 X146.362 Y102.632 E18.97359
G1 X145.761 Y102.756 E18.98268
G1 X145.105 Y102.802 E18.99242
G1 X88.106 Y102.802 E19.83677
G1 X87.493 Y102.762 E19.84587
G1 X86.89 Y102.643 E19.85497
G1 X86.308 Y102.446 E19.86407
G1 X85.756 Y102.176 E19.87317
G1 X85.244 Y101.836 E19.88228
G1 X84.78 Y101.433 E19.89138
G1 X84.373 Y100.973 E19.90048
G1 X84.028 Y100.464 E19.90959
G1 X83.753 Y99.915 E19.91869
G1 X83.551 Y99.334 E19.9278
G1 X83.427 Y98.733 E19.93689
G1 X83.381 Y98.077 E19.94663
G1 X83.381 Y75.077 E20.28734
G1 X83.421 Y74.464 E20.29644
G1 X83.54 Y73.861 E20.30554
G1 X83.737 Y73.279 E20.31464
G1 X84.007 Y72.727 E20.32375
G1 X84.347 Y72.215 E20.33285
G1 X84.75 Y71.751 E20.34195
G1 X85.21 Y71.344 E20.35105
M204 S625
M205 X6
G0 F3750 X85.55 Y71.527
M204 S500
M205 X5
G1 F1200 X86.052 Y71.214 E20.35982
G1 X86.591 Y70.973 E20.36856
G1 X87.159 Y70.806 E20.37733
G1 X87.743 Y70.717 E20.38608
G1 X88.106 Y70.702 E20.39146
G1 X145.105 Y70.702 E21.23581
G1 X145.695 Y70.742 E21.24457
G1 X146.274 Y70.861 E21.25332
G1 X146.832 Y71.057 E21.26209
G1 X147.358 Y71.327 E21.27084
G1 X147.843 Y71.665 E21.2796
G1 X148.278 Y72.065 E21.28835
G1 X148.655 Y72.521 E21.29712
G1 X148.968 Y73.023 E21.30588
G1 X149.209 Y73.562 E21.31463
G1 X149.376 Y74.13 E21.3234
G1 X149.465 Y74.714 E21.33215
G1 X149.48 Y75.077 E21.33753
G1 X149.48 Y98.077 E21.67824
G1 X149.44 Y98.667 E21.687
G1 X149.321 Y99.246 E21.69575
G1 X149.125 Y99.804 E21.70451
G1 X148.855 Y100.33 E21.71327
G1 X148.517 Y100.815 E21.72203
G1 X148.117 Y101.25 E21.73078
G1 X147.661 Y101.627 E21.73955
G1 X147.159 Y101.94 E21.74831
G1 X146.62 Y102.181 E21.75706
G1 X146.052 Y102.348 E21.76583
G1 X145.468 Y102.437 E21.77458
G1 X145.105 Y102.452 E21.77996
G1 X88.106 Y102.452 E22.6243
G1 X87.516 Y102.412 E22.63306
G1 X86.937 Y102.293 E22.64182
G1 X86.379 Y102.097 E22.65058
G1 X85.853 Y101.827 E22.65934
G1 X85.368 Y101.489 E22.6681
G1 X84.933 Y101.089 E22.67685
G1 X84.556 Y100.633 E22.68562
G1 X84.243 Y100.131 E22.69438
G1 X84.002 Y99.592 E22.70313
G1 X83.835 Y99.024 E22.7119
G1 X83.746 Y98.44 E22.72065
G1 X83.731 Y98.077 E22.72603
G1 X83.731 Y75.077 E23.06673
G1 X83.771 Y74.487 E23.07549
G1 X83.89 Y73.908 E23.08425
G1 X84.086 Y73.35 E23.09301
G1 X84.356 Y72.824 E23.10177
G1 X84.694 Y72.339 E23.11053
G1 X85.094 Y71.904 E23.11928
G1 X85.55 Y71.527 E23.12804
M204 S625
M205 X6
G0 F3750 X85.888 Y71.718
M204 S500
M205 X5
G1 F1200 X86.382 Y71.44 E23.13644
G1 X86.91 Y71.234 E23.14484
G1 X87.462 Y71.104 E23.15324
G1 X88.106 Y71.052 E23.16281
G1 X145.105 Y71.052 E24.00715
G1 X145.671 Y71.092 E24.01556
G1 X146.225 Y71.211 E24.02395
G1 X146.757 Y71.407 E24.03235
G1 X147.257 Y71.675 E24.04075
G1 X147.713 Y72.012 E24.04915
G1 X148.118 Y72.409 E24.05755
G1 X148.464 Y72.859 E24.06596
G1 X148.742 Y73.353 E24.07436
G1 X148.948 Y73.881 E24.08276
G1 X149.078 Y74.433 E24.09116
G1 X149.13 Y75.077 E24.10073
G1 X149.13 Y98.077 E24.44143
G1 X149.09 Y98.643 E24.44984
G1 X148.971 Y99.197 E24.45823
G1 X148.775 Y99.729 E24.46663
G1 X148.507 Y100.229 E24.47503
G1 X148.17 Y100.685 E24.48343
G1 X147.773 Y101.09 E24.49183
G1 X147.323 Y101.436 E24.50024
G1 X146.829 Y101.714 E24.50864
G1 X146.301 Y101.92 E24.51704
G1 X145.749 Y102.05 E24.52544
