;START_OF_HEADER
;HEADER_VERSION:0.1
;FLAVOR:Griffin
;GENERATOR.NAME:Cura_SteamEngine
;GENERATOR.VERSION:2.4.0
;GENERATOR.BUILD_DATE:2017-02-13
;TARGET_MACHINE.NAME:Ultimaker 3 Extended
;EXTRUDER_TRAIN.0.INITIAL_TEMPERATURE:205
;EXTRUDER_TRAIN.0.MATERIAL.VOLUME_USED:9145
;EXTRUDER_TRAIN.0.MATERIAL.GUID:506c9f0d-e3aa-4bd4-b2d2-23e2425b1aa9
;EXTRUDER_TRAIN.0.NOZZLE.DIAMETER:0.4
;BUILD_PLATE.INITIAL_TEMPERATURE:60
;PRINT.TIME:6355
;PRINT.SIZE.MIN.X:41.968
;PRINT.SIZE.MIN.Y:6
;PRINT.SIZE.MIN.Z:0.27
;PRINT.SIZE.MAX.X:191.117
;PRINT.SIZE.MAX.Y:125.838
;PRINT.SIZE.MAX.Z:10.92
;END_OF_HEADER
;Generated with Cura_SteamEngine 2.4.0

T0
G92 E0

M109 S205
G0 F15000 X170 Y6 Z2
G280
G1 F1500 E-6.5
;LAYER_COUNT:72
;LAYER:0
M107
M204 S625
M205 X6
G1 Z4
G0 F3750 X45.593 Y89.986 Z2.27
M204 S500
M205 X5
;TYPE:SKIRT
G1 Z0.27
G1 F1500 E0
G1 F1200 X46.263 Y89.675 E0.01094
G1 X46.963 Y89.439 E0.02188
G1 X47.684 Y89.28 E0.03282
G1 X48.419 Y89.199 E0.04378
G1 X48.793 Y89.189 E0.04932
G1 X105.793 Y89.189 E0.89368
G1 X106.531 Y89.229 E0.90462
G1 X107.259 Y89.348 E0.91555
G1 X107.971 Y89.546 E0.9265
G1 X108.657 Y89.819 E0.93744
G1 X109.31 Y90.165 E0.94838
G1 X109.922 Y90.579 E0.95933
G1 X110.485 Y91.057 E0.97027
G1 X110.993 Y91.593 E0.98121
G1 X111.44 Y92.181 E0.99215
G1 X111.821 Y92.814 E1.00309
G1 X112.132 Y93.484 E1.01404
G1 X112.368 Y94.184 E1.02498
G1 X112.527 Y94.905 E1.03592
G1 X112.608 Y95.64 E1.04687
G1 X112.618 Y96.014 E1.05241
G1 X112.618 Y119.013 E1.3931
G1 X112.578 Y119.751 E1.40405
G1 X112.459 Y120.479 E1.41498
G1 X112.261 Y121.191 E1.42593
G1 X111.988 Y121.877 E1.43686
G1 X111.642 Y122.53 E1.44781
G1 X111.228 Y123.142 E1.45876
G1 X110.75 Y123.705 E1.4697
G1 X110.214 Y124.213 E1.48064
G1 X109.626 Y124.66 E1.49158
G1 X108.993 Y125.041 E1.50252
G1 X108.323 Y125.352 E1.51346
G1 X107.623 Y125.588 E1.52441
G1 X106.902 Y125.747 E1.53534
G1 X106.167 Y125.828 E1.5463
G1 X105.793 Y125.838 E1.55184
G1 X48.793 Y125.838 E2.3962
G1 X48.055 Y125.798 E2.40715
G1 X47.327 Y125.679 E2.41807
G1 X46.615 Y125.481 E2.42902
G1 X45.929 Y125.208 E2.43996
G1 X45.276 Y124.862 E2.4509
G1 X44.664 Y124.448 E2.46185
G1 X44.101 Y123.97 E2.47279
G1 X43.593 Y123.434 E2.48373
G1 X43.146 Y122.846 E2.49467
G1 X42.765 Y122.213 E2.50561
G1 X42.454 Y121.543 E2.51656
G1 X42.218 Y120.843 E2.5275
G1 X42.059 Y120.122 E2.53844
G1 X41.978 Y119.387 E2.54939
G1 X41.968 Y119.013 E2.55493
G1 X41.968 Y96.014 E2.89562
G1 X42.008 Y95.276 E2.90657
G1 X42.127 Y94.548 E2.9175
G1 X42.325 Y93.836 E2.92845
G1 X42.598 Y93.15 E2.93938
G1 X42.944 Y92.497 E2.95033
G1 X43.358 Y91.885 E2.96128
G1 X43.836 Y91.322 E2.97222
G1 X44.372 Y90.814 E2.98316
G1 X44.96 Y90.367 E2.9941
G1 X45.593 Y89.986 E3.00504
M204 S625
M205 X6
G0 F3750 X45.924 Y90.21
M204 S500
M205 X5
G1 F1200 X46.585 Y89.927 E3.01569
G1 X47.274 Y89.72 E3.02635
G1 X47.982 Y89.59 E3.03701
G1 X48.793 Y89.539 E3.04905
G1 X105.793 Y89.539 E3.89341
G1 X106.511 Y89.579 E3.90406
G1 X107.221 Y89.698 E3.91473
G1 X107.913 Y89.896 E3.92539
G1 X108.578 Y90.169 E3.93604
G1 X109.21 Y90.514 E3.9467
G1 X109.799 Y90.927 E3.95736
G1 X110.338 Y91.403 E3.96801
G1 X110.822 Y91.935 E3.97867
G1 X111.243 Y92.518 E3.98932
G1 X111.597 Y93.145 E3.99998
G1 X111.88 Y93.806 E4.01063
G1 X112.087 Y94.495 E4.02129
G1 X112.217 Y95.203 E4.03196
G1 X112.268 Y96.014 E4.04399
G1 X112.268 Y119.013 E4.38468
G1 X112.228 Y119.731 E4.39534
G1 X112.109 Y120.441 E4.406
G1 X111.911 Y121.133 E4.41666
G1 X111.638 Y121.798 E4.42731
G1 X111.293 Y122.43 E4.43798
G1 X110.88 Y123.019 E4.44863
G1 X110.404 Y123.558 E4.45929
G1 X109.872 Y124.042 E4.46994
G1 X109.289 Y124.463 E4.48059
G1 X108.662 Y124.817 E4.49126
G1 X108.001 Y125.1 E4.50191
G1 X107.312 Y125.307 E4.51257
G1 X106.604 Y125.437 E4.52323
G1 X105.793 Y125.488 E4.53527
G1 X48.793 Y125.488 E5.37963
G1 X48.075 Y125.448 E5.39028
G1 X47.365 Y125.329 E5.40094
G1 X46.673 Y125.131 E5.4116
G1 X46.008 Y124.858 E5.42225
G1 X45.376 Y124.513 E5.43292
G1 X44.787 Y124.1 E5.44358
G1 X44.248 Y123.624 E5.45423
G1 X43.764 Y123.092 E5.46488
G1 X43.343 Y122.509 E5.47553
G1 X42.989 Y121.882 E5.4862
G1 X42.706 Y121.221 E5.49685
G1 X42.499 Y120.532 E5.50751
G1 X42.369 Y119.824 E5.51817
G1 X42.318 Y119.013 E5.53021
G1 X42.318 Y96.014 E5.8709
G1 X42.358 Y95.296 E5.88155
G1 X42.477 Y94.586 E5.89222
G1 X42.675 Y93.894 E5.90288
G1 X42.948 Y93.229 E5.91353
G1 X43.293 Y92.597 E5.92419
G1 X43.706 Y92.008 E5.93485
G1 X44.182 Y91.469 E5.9455
G1 X44.714 Y90.985 E5.95616
G1 X45.297 Y90.564 E5.96681
G1 X45.924 Y90.21 E5.97748
M204 S625
M205 X6
G0 F3750 X46.252 Y90.441
M204 S500
M205 X5
G1 F1200 X46.904 Y90.187 E5.98784
G1 X47.581 Y90.01 E5.99821
G1 X48.274 Y89.911 E6.00858
G1 X48.793 Y89.889 E6.01627
G1 X105.793 Y89.889 E6.86063
G1 X106.492 Y89.929 E6.871
G1 X107.181 Y90.048 E6.88136
G1 X107.852 Y90.246 E6.89172
G1 X108.497 Y90.518 E6.90209
G1 X109.106 Y90.862 E6.91245
G1 X109.672 Y91.274 E6.92282
G1 X110.187 Y91.747 E6.93318
G1 X110.645 Y92.276 E6.94355
G1 X111.04 Y92.854 E6.95392
G1 X111.366 Y93.473 E6.96428
G1 X111.62 Y94.125 E6.97465
G1 X111.797 Y94.802 E6.98501
G1 X111.896 Y95.495 E6.99538
G1 X111.918 Y96.014 E7.00308
G1 X111.918 Y119.013 E7.34377
G1 X111.878 Y119.712 E7.35414
G1 X111.759 Y120.401 E7.3645
G1 X111.561 Y121.072 E7.37486
G1 X111.289 Y121.717 E7.38523
G1 X110.945 Y122.326 E7.39559
G1 X110.533 Y122.892 E7.40596
G1 X110.06 Y123.407 E7.41632
G1 X109.531 Y123.865 E7.42668
G1 X108.953 Y124.26 E7.43705
G1 X108.334 Y124.586 E7.44742
G1 X107.682 Y124.84 E7.45778
G1 X107.005 Y125.017 E7.46815
G1 X106.312 Y125.116 E7.47852
G1 X105.793 Y125.138 E7.48621
G1 X48.793 Y125.138 E8.33057
G1 X48.094 Y125.098 E8.34094
G1 X47.405 Y124.979 E8.3513
G1 X46.734 Y124.781 E8.36167
G1 X46.089 Y124.509 E8.37203
G1 X45.48 Y124.165 E8.3824
G1 X44.914 Y123.753 E8.39277
G1 X44.399 Y123.28 E8.40312
G1 X43.941 Y122.751 E8.41349
G1 X43.546 Y122.173 E8.42386
G1 X43.22 Y121.554 E8.43422
G1 X42.966 Y120.902 E8.44459
G1 X42.789 Y120.225 E8.45495
G1 X42.69 Y119.532 E8.46532
G1 X42.668 Y119.013 E8.47302
G1 X42.668 Y96.014 E8.81371
G1 X42.708 Y95.315 E8.82408
G1 X42.827 Y94.626 E8.83444
G1 X43.025 Y93.955 E8.8448
G1 X43.297 Y93.31 E8.85517
G1 X43.641 Y92.701 E8.86553
G1 X44.053 Y92.135 E8.8759
G1 X44.526 Y91.62 E8.88626
G1 X45.055 Y91.162 E8.89663
G1 X45.633 Y90.767 E8.907
G1 X46.252 Y90.441 E8.91736
M204 S625
M205 X6
G0 F3750 X46.578 Y90.681
M204 S500
M205 X5
G1 F1200 X47.22 Y90.457 E8.92743
G1 X47.883 Y90.311 E8.93749
G1 X48.793 Y90.239 E8.95101
G1 X105.793 Y90.239 E9.79537
G1 X106.471 Y90.279 E9.80543
G1 X107.14 Y90.398 E9.8155
G1 X107.79 Y90.595 E9.82556
G1 X108.413 Y90.867 E9.83563
G1 X108.999 Y91.211 E9.84569
G1 X109.541 Y91.621 E9.85576
G1 X110.031 Y92.091 E9.86582
G1 X110.462 Y92.616 E9.87588
G1 X110.829 Y93.188 E9.88595
G1 X111.126 Y93.799 E9.89601
G1 X111.35 Y94.441 E9.90608
G1 X111.496 Y95.104 E9.91614
G1 X111.568 Y96.014 E9.92966
G1 X111.568 Y119.013 E10.27035
G1 X111.528 Y119.691 E10.28042
G1 X111.409 Y120.36 E10.29048
G1 X111.212 Y121.01 E10.30054
G1 X110.94 Y121.633 E10.31061
G1 X110.596 Y122.219 E10.32068
G1 X110.186 Y122.761 E10.33075
G1 X109.716 Y123.251 E10.3408
G1 X109.191 Y123.682 E10.35087
G1 X108.619 Y124.049 E10.36093
G1 X108.008 Y124.346 E10.371
G1 X107.366 Y124.57 E10.38107
G1 X106.703 Y124.716 E10.39113
G1 X105.793 Y124.788 E10.40465
G1 X48.793 Y124.788 E11.24901
G1 X48.115 Y124.748 E11.25907
G1 X47.446 Y124.629 E11.26913
G1 X46.796 Y124.432 E11.27919
G1 X46.173 Y124.16 E11.28926
G1 X45.587 Y123.816 E11.29933
G1 X45.045 Y123.406 E11.3094
G1 X44.555 Y122.936 E11.31945
G1 X44.124 Y122.411 E11.32952
G1 X43.757 Y121.839 E11.33958
G1 X43.46 Y121.228 E11.34965
G1 X43.236 Y120.586 E11.35972
G1 X43.09 Y119.923 E11.36978
G1 X43.018 Y119.013 E11.3833
G1 X43.018 Y96.014 E11.72399
G1 X43.058 Y95.336 E11.73405
G1 X43.177 Y94.667 E11.74412
G1 X43.374 Y94.017 E11.75418
G1 X43.646 Y93.394 E11.76425
G1 X43.99 Y92.808 E11.77431
G1 X44.4 Y92.266 E11.78438
G1 X44.87 Y91.776 E11.79444
G1 X45.395 Y91.345 E11.8045
G1 X45.967 Y90.978 E11.81457
G1 X46.578 Y90.681 E11.82463
M204 S625
M205 X6
G0 F3750 X46.901 Y90.93
M204 S500
M205 X5
G1 F1200 X47.531 Y90.738 E11.83439
G1 X48.179 Y90.624 E11.84413
G1 X48.793 Y90.589 E11.85324
G1 X105.793 Y90.589 E12.6976
G1 X106.45 Y90.629 E12.70735
G1 X107.098 Y90.748 E12.71711
G1 X107.726 Y90.945 E12.72686
G1 X108.326 Y91.217 E12.73662
G1 X108.889 Y91.559 E12.74638
G1 X109.406 Y91.967 E12.75614
G1 X109.869 Y92.434 E12.76588
G1 X110.273 Y92.955 E12.77564
G1 X110.611 Y93.52 E12.7854
G1 X110.877 Y94.122 E12.79515
G1 X111.069 Y94.752 E12.8049
G1 X111.183 Y95.4 E12.81465
G1 X111.218 Y96.014 E12.82376
G1 X111.218 Y119.013 E13.16445
G1 X111.178 Y119.67 E13.1742
G1 X111.059 Y120.318 E13.18396
G1 X110.862 Y120.946 E13.19371
G1 X110.59 Y121.546 E13.20347
G1 X110.248 Y122.109 E13.21323
G1 X109.84 Y122.626 E13.22298
G1 X109.373 Y123.089 E13.23272
G1 X108.852 Y123.493 E13.24249
G1 X108.287 Y123.831 E13.25224
G1 X107.685 Y124.097 E13.26199
G1 X107.055 Y124.289 E13.27175
G1 X106.407 Y124.403 E13.28149
G1 X105.793 Y124.438 E13.2906
G1 X48.793 Y124.438 E14.13496
G1 X48.136 Y124.398 E14.14471
G1 X47.488 Y124.279 E14.15447
G1 X46.86 Y124.082 E14.16422
G1 X46.26 Y123.81 E14.17398
G1 X45.697 Y123.468 E14.18374
G1 X45.18 Y123.06 E14.1935
G1 X44.717 Y122.593 E14.20324
G1 X44.313 Y122.072 E14.213
G1 X43.975 Y121.507 E14.22276
G1 X43.709 Y120.905 E14.23251
G1 X43.517 Y120.275 E14.24226
G1 X43.403 Y119.627 E14.25201
G1 X43.368 Y119.013 E14.26112
G1 X43.368 Y96.014 E14.60181
G1 X43.408 Y95.357 E14.61156
G1 X43.527 Y94.709 E14.62132
G1 X43.724 Y94.081 E14.63107
G1 X43.996 Y93.481 E14.64083
G1 X44.338 Y92.918 E14.65059
G1 X44.746 Y92.401 E14.66034
G1 X45.213 Y91.938 E14.67008
G1 X45.734 Y91.534 E14.67985
G1 X46.299 Y91.196 E14.6896
G1 X46.901 Y90.93 E14.69935
M204 S625
M205 X6
G0 F3750 X47.22 Y91.189
M204 S500
M205 X5
G1 F1200 X47.837 Y91.03 E14.70879
G1 X48.469 Y90.949 E14.71823
G1 X48.793 Y90.939 E14.72303
G1 X105.793 Y90.939 E15.56739
G1 X106.429 Y90.979 E15.57683
G1 X107.054 Y91.098 E15.58625
G1 X107.66 Y91.295 E15.59569
G1 X108.236 Y91.566 E15.60512
G1 X108.774 Y91.907 E15.61456
G1 X109.265 Y92.313 E15.624
G1 X109.701 Y92.777 E15.63343
G1 X110.076 Y93.292 E15.64287
G1 X110.383 Y93.849 E15.65229
G1 X110.618 Y94.441 E15.66172
G1 X110.777 Y95.058 E15.67116
G1 X110.858 Y95.69 E15.6806
G1 X110.868 Y96.014 E15.6854
G1 X110.868 Y119.013 E16.02609
G1 X110.828 Y119.649 E16.03553
G1 X110.709 Y120.274 E16.04496
G1 X110.512 Y120.88 E16.0544
G1 X110.241 Y121.456 E16.06383
G1 X109.9 Y121.994 E16.07326
G1 X109.494 Y122.485 E16.0827
G1 X109.03 Y122.921 E16.09213
G1 X108.515 Y123.296 E16.10157
G1 X107.958 Y123.603 E16.11099
G1 X107.366 Y123.838 E16.12042
G1 X106.749 Y123.997 E16.12986
G1 X106.117 Y124.078 E16.1393
G1 X105.793 Y124.088 E16.1441
G1 X48.793 Y124.088 E16.98846
G1 X48.157 Y124.048 E16.9979
G1 X47.532 Y123.929 E17.00733
G1 X46.926 Y123.732 E17.01677
G1 X46.35 Y123.461 E17.02619
G1 X45.812 Y123.12 E17.03563
G1 X45.321 Y122.714 E17.04507
G1 X44.885 Y122.25 E17.0545
G1 X44.51 Y121.735 E17.06394
G1 X44.203 Y121.178 E17.07336
G1 X43.968 Y120.586 E17.08279
G1 X43.809 Y119.969 E17.09223
G1 X43.728 Y119.337 E17.10167
G1 X43.718 Y119.013 E17.10647
G1 X43.718 Y96.014 E17.44716
G1 X43.758 Y95.378 E17.4566
G1 X43.877 Y94.753 E17.46603
G1 X44.074 Y94.147 E17.47547
G1 X44.345 Y93.571 E17.4849
G1 X44.686 Y93.033 E17.49433
G1 X45.092 Y92.542 E17.50377
G1 X45.556 Y92.106 E17.5132
G1 X46.071 Y91.731 E17.52264
G1 X46.628 Y91.424 E17.53206
G1 X47.22 Y91.189 E17.5415
M204 S625
M205 X6
G0 F3750 X47.536 Y91.459
M204 S500
M205 X5
G1 F1200 X48.137 Y91.335 E17.55059
G1 X48.793 Y91.289 E17.56033
G1 X105.793 Y91.289 E18.40469
G1 X106.406 Y91.329 E18.41379
G1 X107.009 Y91.448 E18.42289
G1 X107.591 Y91.645 E18.43199
G1 X108.143 Y91.915 E18.4411
G1 X108.655 Y92.255 E18.4502
G1 X109.119 Y92.658 E18.4593
G1 X109.526 Y93.118 E18.4684
G1 X109.871 Y93.627 E18.47751
G1 X110.146 Y94.176 E18.48661
G1 X110.348 Y94.757 E18.49572
G1 X110.472 Y95.358 E18.50481
G1 X110.518 Y96.014 E18.51455
G1 X110.518 Y119.013 E18.85524
G1 X110.478 Y119.626 E18.86434
G1 X110.359 Y120.229 E18.87345
G1 X110.162 Y120.811 E18.88255
G1 X109.892 Y121.363 E18.89165
G1 X109.552 Y121.875 E18.90076
G1 X109.149 Y122.339 E18.90986
G1 X108.689 Y122.746 E18.91896
G1 X108.18 Y123.091 E18.92807
G1 X107.631 Y123.366 E18.93716
G1 X107.05 Y123.568 E18.94627
G1 X106.449 Y123.692 E18.95536
G1 X105.793 Y123.738 E18.96511
G1 X48.793 Y123.738 E19.80946
G1 X48.18 Y123.698 E19.81856
G1 X47.577 Y123.579 E19.82767
G1 X46.995 Y123.382 E19.83677
G1 X46.443 Y123.112 E19.84587
G1 X45.931 Y122.772 E19.85498
G1 X45.467 Y122.369 E19.86408
G1 X45.06 Y121.909 E19.87318
G1 X44.715 Y121.4 E19.88229
G1 X44.44 Y120.851 E19.89138
G1 X44.238 Y120.27 E19.9005
G1 X44.114 Y119.669 E19.90959
G1 X44.068 Y119.013 E19.91933
G1 X44.068 Y96.014 E20.26002
G1 X44.108 Y95.401 E20.26912
G1 X44.227 Y94.798 E20.27822
G1 X44.424 Y94.216 E20.28733
G1 X44.694 Y93.664 E20.29643
G1 X45.034 Y93.152 E20.30553
G1 X45.437 Y92.688 E20.31464
G1 X45.897 Y92.281 E20.32374
G1 X46.406 Y91.936 E20.33284
G1 X46.955 Y91.661 E20.34194
G1 X47.536 Y91.459 E20.35105
M204 S625
M205 X6
G0 F3750 X47.846 Y91.743
M204 S500
M205 X5
G1 F1200 X48.43 Y91.654 E20.3598
G1 X48.793 Y91.639 E20.36518
G1 X105.793 Y91.639 E21.20954
G1 X106.383 Y91.679 E21.2183
G1 X106.962 Y91.798 E21.22706
G1 X107.52 Y91.994 E21.23582
G1 X108.046 Y92.264 E21.24458
G1 X108.531 Y92.602 E21.25334
G1 X108.966 Y93.002 E21.26209
G1 X109.343 Y93.458 E21.27085
G1 X109.656 Y93.96 E21.27962
G1 X109.897 Y94.499 E21.28836
G1 X110.064 Y95.067 E21.29713
G1 X110.153 Y95.651 E21.30588
G1 X110.168 Y96.014 E21.31127
G1 X110.168 Y119.013 E21.65196
G1 X110.128 Y119.603 E21.66072
G1 X110.009 Y120.182 E21.66947
G1 X109.813 Y120.74 E21.67823
G1 X109.543 Y121.266 E21.68699
G1 X109.205 Y121.751 E21.69575
G1 X108.805 Y122.186 E21.7045
G1 X108.349 Y122.563 E21.71327
G1 X107.847 Y122.876 E21.72203
G1 X107.308 Y123.117 E21.73078
G1 X106.74 Y123.284 E21.73955
G1 X106.156 Y123.373 E21.7483
G1 X105.793 Y123.388 E21.75368
G1 X48.793 Y123.388 E22.59804
G1 X48.203 Y123.348 E22.6068
G1 X47.624 Y123.229 E22.61556
G1 X47.066 Y123.033 E22.62432
G1 X46.54 Y122.763 E22.63308
G1 X46.055 Y122.425 E22.64183
G1 X45.62 Y122.025 E22.65059
G1 X45.243 Y121.569 E22.65935
G1 X44.93 Y121.067 E22.66811
G1 X44.689 Y120.528 E22.67686
G1 X44.522 Y119.96 E22.68563
G1 X44.433 Y119.376 E22.69438
G1 X44.418 Y119.013 E22.69976
G1 X44.418 Y96.014 E23.04045
G1 X44.458 Y95.424 E23.04921
G1 X44.577 Y94.845 E23.05797
G1 X44.773 Y94.287 E23.06673
G1 X45.043 Y93.761 E23.07549
G1 X45.381 Y93.276 E23.08425
G1 X45.781 Y92.841 E23.093
G1 X46.237 Y92.464 E23.10177
G1 X46.739 Y92.151 E23.11053
G1 X47.278 Y91.91 E23.11927
G1 X47.846 Y91.743 E23.12804
M204 S625
M205 X6
G0 F3750 X47.597 Y92.171
M204 S500
M205 X5
G1 F1200 X48.149 Y92.041 E23.13645
G1 X48.793 Y91.989 E23.14602
G1 X105.793 Y91.989 E23.99038
G1 X106.359 Y92.029 E23.99878
G1 X106.913 Y92.148 E24.00717
G1 X107.445 Y92.344 E24.01557
G1 X107.945 Y92.612 E24.02398
G1 X108.401 Y92.949 E24.03238
G1 X108.806 Y93.346 E24.04078
G1 X109.152 Y93.796 E24.04919
G1 X109.43 Y94.29 E24.05758
G1 X109.636 Y94.818 E24.06598
G1 X109.766 Y95.37 E24.07438
G1 X109.818 Y96.014 E24.08395
G1 X109.818 Y119.013 E24.42464
G1 X109.778 Y119.579 E24.43305
G1 X109.659 Y120.133 E24.44144
G1 X109.463 Y120.665 E24.44984
G1 X109.195 Y121.165 E24.45824
G1 X108.858 Y121.621 E24.46664
G1 X108.461 Y122.026 E24.47504
G1 X108.011 Y122.372 E24.48345
G1 X107.517 Y122.65 E24.49185
G1 X106.989 Y122.856 E24.50024
