;START_OF_HEADER
;HEADER_VERSION:0.1
;FLAVOR:Griffin
;GENERATOR.NAME:Cura_SteamEngine
;GENERATOR.VERSION:2.4.0
;GENERATOR.BUILD_DATE:2017-02-13
;TARGET_MACHINE.NAME:Ultimaker 3 Extended
;EXTRUDER_TRAIN.0.INITIAL_TEMPERATURE:205
;EXTRUDER_TRAIN.0.MATERIAL.VOLUME_USED:4592
;EXTRUDER_TRAIN.0.MATERIAL.GUID:506c9f0d-e3aa-4bd4-b2d2-23e2425b1aa9
;EXTRUDER_TRAIN.0.NOZZLE.DIAMETER:0.4
;BUILD_PLATE.INITIAL_TEMPERATURE:60
;PRINT.TIME:3900
;PRINT.SIZE.MIN.X:84.675
;PRINT.SIZE.MIN.Y:6
;PRINT.SIZE.MIN.Z:0.27
;PRINT.SIZE.MAX.X:170
;PRINT.SIZE.MAX.Y:144.325
;PRINT.SIZE.MAX.Z:26.97
;END_OF_HEADER
;Generated with Cura_SteamEngine 2.4.0

T0
G92 E0

M109 S205
G0 F15000 X170 Y6 Z2
G280
G1 F1500 E-6.5
;LAYER_COUNT:179
;LAYER:0
M107
M204 S625
M205 X6
G1 Z4
G0 F3750 X86.065 Y73.371 Z2.27
M204 S500
M205 X5
;TYPE:SKIRT
G1 Z0.27
G1 F1500 E0
G1 F1200 X86.543 Y72.808 E0.01094
G1 X87.079 Y72.3 E0.02188
G1 X87.667 Y71.853 E0.03282
G1 X88.3 Y71.472 E0.04377
G1 X88.97 Y71.161 E0.05471
G1 X89.67 Y70.925 E0.06565
G1 X90.391 Y70.766 E0.07659
G1 X91.126 Y70.685 E0.08754
G1 X91.5 Y70.675 E0.09308
G1 X141.5 Y70.675 E0.83375
G1 X142.238 Y70.715 E0.8447
G1 X142.966 Y70.834 E0.85562
G1 X143.678 Y71.032 E0.86657
G1 X144.364 Y71.305 E0.87751
G1 X145.017 Y71.651 E0.88846
G1 X145.629 Y72.065 E0.8994
G1 X146.192 Y72.543 E0.91034
G1 X146.7 Y73.079 E0.92128
G1 X147.147 Y73.667 E0.93222
G1 X147.528 Y74.3 E0.94317
G1 X147.839 Y74.97 E0.95411
G1 X148.075 Y75.67 E0.96505
G1 X148.234 Y76.391 E0.97599
G1 X148.315 Y77.126 E0.98694
G1 X148.325 Y77.5 E0.99248
G1 X148.325 Y137.5 E1.88128
G1 X148.285 Y138.238 E1.89223
G1 X148.166 Y138.966 E1.90316
G1 X147.968 Y139.678 E1.91411
G1 X147.695 Y140.364 E1.92504
G1 X147.349 Y141.017 E1.93599
G1 X146.935 Y141.629 E1.94693
G1 X146.457 Y142.192 E1.95788
G1 X145.921 Y142.7 E1.96881
G1 X145.333 Y143.147 E1.97976
G1 X144.7 Y143.528 E1.9907
G1 X144.03 Y143.839 E2.00164
G1 X143.33 Y144.075 E2.01259
G1 X142.609 Y144.234 E2.02352
G1 X141.874 Y144.315 E2.03448
G1 X141.5 Y144.325 E2.04002
G1 X91.5 Y144.325 E2.78068
G1 X90.762 Y144.285 E2.79163
G1 X90.034 Y144.166 E2.80256
G1 X89.322 Y143.968 E2.81351
G1 X88.636 Y143.695 E2.82444
G1 X87.983 Y143.349 E2.83539
G1 X87.371 Y142.935 E2.84634
G1 X86.808 Y142.457 E2.85728
G1 X86.3 Y141.921 E2.86822
G1 X85.853 Y141.333 E2.87916
G1 X85.472 Y140.7 E2.8901
G1 X85.161 Y140.03 E2.90104
G1 X84.925 Y139.33 E2.91199
G1 X84.766 Y138.609 E2.92292
G1 X84.685 Y137.874 E2.93388
G1 X84.675 Y137.5 E2.93942
G1 X84.675 Y77.5 E3.82822
G1 X84.715 Y76.762 E3.83917
G1 X84.834 Y76.034 E3.85009
G1 X85.032 Y75.322 E3.86104
G1 X85.305 Y74.636 E3.87198
G1 X85.651 Y73.983 E3.88292
G1 X86.065 Y73.371 E3.89387
M204 S625
M205 X6
G0 F3750 X86.413 Y73.494
M204 S500
M205 X5
G1 F1200 X86.889 Y72.955 E3.90452
G1 X87.421 Y72.471 E3.91518
G1 X88.004 Y72.05 E3.92583
G1 X88.631 Y71.696 E3.93649
G1 X89.292 Y71.413 E3.94715
G1 X89.981 Y71.206 E3.9578
G1 X90.689 Y71.076 E3.96847
G1 X91.5 Y71.025 E3.9805
G1 X141.5 Y71.025 E4.72117
G1 X142.218 Y71.065 E4.73182
G1 X142.928 Y71.184 E4.74249
G1 X143.62 Y71.382 E4.75315
G1 X144.285 Y71.655 E4.7638
G1 X144.917 Y72 E4.77446
G1 X145.506 Y72.413 E4.78512
G1 X146.045 Y72.889 E4.79577
G1 X146.529 Y73.421 E4.80643
G1 X146.95 Y74.004 E4.81708
G1 X147.304 Y74.631 E4.82774
G1 X147.587 Y75.292 E4.83839
G1 X147.794 Y75.981 E4.84905
G1 X147.924 Y76.689 E4.85972
G1 X147.975 Y77.5 E4.87175
G1 X147.975 Y137.5 E5.76055
G1 X147.935 Y138.218 E5.7712
G1 X147.816 Y138.928 E5.78187
G1 X147.618 Y139.62 E5.79253
G1 X147.345 Y140.285 E5.80318
G1 X147 Y140.917 E5.81384
G1 X146.587 Y141.506 E5.8245
G1 X146.111 Y142.045 E5.83515
G1 X145.579 Y142.529 E5.84581
G1 X144.996 Y142.95 E5.85646
G1 X144.369 Y143.304 E5.86713
G1 X143.708 Y143.587 E5.87778
G1 X143.019 Y143.794 E5.88843
G1 X142.311 Y143.924 E5.8991
G1 X141.5 Y143.975 E5.91113
G1 X91.5 Y143.975 E6.6518
G1 X90.782 Y143.935 E6.66245
G1 X90.072 Y143.816 E6.67312
G1 X89.38 Y143.618 E6.68378
G1 X88.715 Y143.345 E6.69443
G1 X88.083 Y143 E6.70509
G1 X87.494 Y142.587 E6.71575
G1 X86.955 Y142.111 E6.7264
G1 X86.471 Y141.579 E6.73706
G1 X86.05 Y140.996 E6.74771
G1 X85.696 Y140.369 E6.75837
G1 X85.413 Y139.708 E6.76903
G1 X85.206 Y139.019 E6.77968
G1 X85.076 Y138.311 E6.79035
G1 X85.025 Y137.5 E6.80238
G1 X85.025 Y77.5 E7.69118
G1 X85.065 Y76.782 E7.70183
G1 X85.184 Y76.072 E7.7125
G1 X85.382 Y75.38 E7.72316
G1 X85.655 Y74.715 E7.73381
G1 X86 Y74.083 E7.74448
G1 X86.413 Y73.494 E7.75513
M204 S625
M205 X6
G0 F3750 X86.76 Y73.621
M204 S500
M205 X5
G1 F1200 X87.233 Y73.106 E7.76549
G1 X87.762 Y72.648 E7.77586
G1 X88.34 Y72.253 E7.78623
G1 X88.959 Y71.927 E7.79659
G1 X89.611 Y71.673 E7.80695
G1 X90.288 Y71.496 E7.81732
G1 X90.981 Y71.397 E7.82769
G1 X91.5 Y71.375 E7.83539
G1 X141.5 Y71.375 E8.57605
G1 X142.199 Y71.415 E8.58642
G1 X142.888 Y71.534 E8.59678
G1 X143.559 Y71.732 E8.60714
G1 X144.204 Y72.004 E8.61751
G1 X144.813 Y72.348 E8.62787
G1 X145.379 Y72.76 E8.63824
G1 X145.894 Y73.233 E8.6486
G1 X146.352 Y73.762 E8.65897
G1 X146.747 Y74.34 E8.66934
G1 X147.073 Y74.959 E8.6797
G1 X147.327 Y75.611 E8.69007
G1 X147.504 Y76.288 E8.70043
G1 X147.603 Y76.981 E8.7108
G1 X147.625 Y77.5 E8.7185
G1 X147.625 Y137.5 E9.6073
G1 X147.585 Y138.199 E9.61767
G1 X147.466 Y138.888 E9.62802
G1 X147.268 Y139.559 E9.63839
G1 X146.996 Y140.204 E9.64876
G1 X146.652 Y140.813 E9.65912
G1 X146.24 Y141.379 E9.66949
G1 X145.767 Y141.894 E9.67985
G1 X145.238 Y142.352 E9.69021
G1 X144.66 Y142.747 E9.70058
G1 X144.041 Y143.073 E9.71095
G1 X143.389 Y143.327 E9.72131
G1 X142.712 Y143.504 E9.73168
G1 X142.019 Y143.603 E9.74205
G1 X141.5 Y143.625 E9.74974
G1 X91.5 Y143.625 E10.49041
G1 X90.801 Y143.585 E10.50078
G1 X90.112 Y143.466 E10.51114
G1 X89.441 Y143.268 E10.5215
G1 X88.796 Y142.996 E10.53187
G1 X88.187 Y142.652 E10.54223
G1 X87.621 Y142.24 E10.5526
G1 X87.106 Y141.767 E10.56296
G1 X86.648 Y141.238 E10.57332
G1 X86.253 Y140.66 E10.58369
G1 X85.927 Y140.041 E10.59406
G1 X85.673 Y139.389 E10.60442
G1 X85.496 Y138.712 E10.61479
G1 X85.397 Y138.019 E10.62516
G1 X85.375 Y137.5 E10.63285
G1 X85.375 Y77.5 E11.52165
G1 X85.415 Y76.801 E11.53202
G1 X85.534 Y76.112 E11.54238
G1 X85.732 Y75.441 E11.55275
G1 X86.004 Y74.796 E11.56311
G1 X86.348 Y74.187 E11.57348
G1 X86.76 Y73.621 E11.58385
M204 S625
M205 X6
G0 F3750 X87.107 Y73.752
M204 S500
M205 X5
G1 F1200 X87.577 Y73.262 E11.5939
G1 X88.102 Y72.831 E11.60397
G1 X88.674 Y72.464 E11.61403
G1 X89.285 Y72.167 E11.6241
G1 X89.927 Y71.943 E11.63417
G1 X90.59 Y71.797 E11.64423
G1 X91.5 Y71.725 E11.65775
G1 X141.5 Y71.725 E12.39841
G1 X142.178 Y71.765 E12.40847
G1 X142.847 Y71.884 E12.41854
G1 X143.497 Y72.081 E12.4286
G1 X144.12 Y72.353 E12.43867
G1 X144.706 Y72.697 E12.44874
G1 X145.248 Y73.107 E12.4588
G1 X145.738 Y73.577 E12.46886
G1 X146.169 Y74.102 E12.47892
G1 X146.536 Y74.674 E12.48899
G1 X146.833 Y75.285 E12.49905
G1 X147.057 Y75.927 E12.50913
G1 X147.203 Y76.59 E12.51918
G1 X147.275 Y77.5 E12.53271
G1 X147.275 Y137.5 E13.4215
G1 X147.235 Y138.178 E13.43157
G1 X147.116 Y138.847 E13.44163
G1 X146.919 Y139.497 E13.45169
G1 X146.647 Y140.12 E13.46176
G1 X146.303 Y140.706 E13.47183
G1 X145.893 Y141.248 E13.4819
G1 X145.423 Y141.738 E13.49195
G1 X144.898 Y142.169 E13.50202
G1 X144.326 Y142.536 E13.51208
G1 X143.715 Y142.833 E13.52215
G1 X143.073 Y143.057 E13.53222
G1 X142.41 Y143.203 E13.54228
G1 X141.5 Y143.275 E13.5558
G1 X91.5 Y143.275 E14.29646
G1 X90.822 Y143.235 E14.30652
G1 X90.153 Y143.116 E14.31659
G1 X89.503 Y142.919 E14.32665
G1 X88.88 Y142.647 E14.33672
G1 X88.294 Y142.303 E14.34679
G1 X87.752 Y141.893 E14.35685
G1 X87.262 Y141.423 E14.36691
G1 X86.831 Y140.898 E14.37697
G1 X86.464 Y140.326 E14.38704
G1 X86.167 Y139.715 E14.3971
G1 X85.943 Y139.073 E14.40718
G1 X85.797 Y138.41 E14.41723
G1 X85.725 Y137.5 E14.43076
G1 X85.725 Y77.5 E15.31955
G1 X85.765 Y76.822 E15.32962
G1 X85.884 Y76.153 E15.33968
G1 X86.081 Y75.503 E15.34974
G1 X86.353 Y74.88 E15.35981
G1 X86.697 Y74.294 E15.36988
G1 X87.107 Y73.752 E15.37995
M204 S625
M205 X6
G0 F3750 X87.453 Y73.887
M204 S500
M205 X5
G1 F1200 X87.92 Y73.424 E15.38969
G1 X88.441 Y73.02 E15.39945
G1 X89.006 Y72.682 E15.40921
G1 X89.608 Y72.416 E15.41895
G1 X90.238 Y72.224 E15.42871
G1 X90.886 Y72.11 E15.43846
G1 X91.5 Y72.075 E15.44757
G1 X141.5 Y72.075 E16.18823
G1 X142.157 Y72.115 E16.19798
G1 X142.805 Y72.234 E16.20774
G1 X143.433 Y72.431 E16.21749
G1 X144.033 Y72.703 E16.22725
G1 X144.596 Y73.045 E16.23701
G1 X145.113 Y73.453 E16.24677
G1 X145.576 Y73.92 E16.25651
G1 X145.98 Y74.441 E16.26627
G1 X146.318 Y75.006 E16.27603
G1 X146.584 Y75.608 E16.28578
G1 X146.776 Y76.238 E16.29553
G1 X146.89 Y76.886 E16.30528
G1 X146.925 Y77.5 E16.31439
G1 X146.925 Y137.5 E17.20319
G1 X146.885 Y138.157 E17.21294
G1 X146.766 Y138.805 E17.2227
G1 X146.569 Y139.433 E17.23245
G1 X146.297 Y140.033 E17.24221
G1 X145.955 Y140.596 E17.25196
G1 X145.547 Y141.113 E17.26172
G1 X145.08 Y141.576 E17.27146
G1 X144.559 Y141.98 E17.28123
G1 X143.994 Y142.318 E17.29098
G1 X143.392 Y142.584 E17.30073
G1 X142.762 Y142.776 E17.31049
G1 X142.114 Y142.89 E17.32023
G1 X141.5 Y142.925 E17.32934
G1 X91.5 Y142.925 E18.07001
G1 X90.843 Y142.885 E18.07976
G1 X90.195 Y142.766 E18.08952
G1 X89.567 Y142.569 E18.09927
G1 X88.967 Y142.297 E18.10903
G1 X88.404 Y141.955 E18.11878
G1 X87.887 Y141.547 E18.12854
G1 X87.424 Y141.08 E18.13828
G1 X87.02 Y140.559 E18.14805
G1 X86.682 Y139.994 E18.1578
G1 X86.416 Y139.392 E18.16755
G1 X86.224 Y138.762 E18.17731
G1 X86.11 Y138.114 E18.18705
G1 X86.075 Y137.5 E18.19616
G1 X86.075 Y77.5 E19.08496
G1 X86.115 Y76.843 E19.09471
G1 X86.234 Y76.195 E19.10447
G1 X86.431 Y75.567 E19.11422
G1 X86.703 Y74.967 E19.12398
G1 X87.045 Y74.404 E19.13374
G1 X87.453 Y73.887 E19.14349
M204 S625
M205 X6
G0 F3750 X87.799 Y74.028
M204 S500
M205 X5
G1 F1200 X88.263 Y73.592 E19.15293
G1 X88.778 Y73.217 E19.16236
G1 X89.335 Y72.91 E19.17178
G1 X89.927 Y72.675 E19.18122
G1 X90.544 Y72.516 E19.19066
G1 X91.176 Y72.435 E19.2001
G1 X91.5 Y72.425 E19.2049
G1 X141.5 Y72.425 E19.94556
G1 X142.136 Y72.465 E19.955
G1 X142.761 Y72.584 E19.96443
G1 X143.367 Y72.781 E19.97387
G1 X143.943 Y73.052 E19.9833
G1 X144.481 Y73.393 E19.99273
G1 X144.972 Y73.799 E20.00217
G1 X145.408 Y74.263 E20.0116
G1 X145.783 Y74.778 E20.02104
G1 X146.09 Y75.335 E20.03046
G1 X146.325 Y75.927 E20.0399
G1 X146.484 Y76.544 E20.04933
G1 X146.565 Y77.176 E20.05877
G1 X146.575 Y77.5 E20.06357
G1 X146.575 Y137.5 E20.95237
G1 X146.535 Y138.136 E20.96181
G1 X146.416 Y138.761 E20.97124
G1 X146.219 Y139.367 E20.98068
G1 X145.948 Y139.943 E20.99011
G1 X145.607 Y140.481 E20.99954
G1 X145.201 Y140.972 E21.00898
G1 X144.737 Y141.408 E21.01841
G1 X144.222 Y141.783 E21.02785
G1 X143.665 Y142.09 E21.03727
G1 X143.073 Y142.325 E21.04671
G1 X142.456 Y142.484 E21.05614
G1 X141.824 Y142.565 E21.06558
G1 X141.5 Y142.575 E21.07038
G1 X91.5 Y142.575 E21.81105
G1 X90.864 Y142.535 E21.82049
G1 X90.239 Y142.416 E21.82991
G1 X89.633 Y142.219 E21.83935
G1 X89.057 Y141.948 E21.84878
G1 X88.519 Y141.607 E21.85822
G1 X88.028 Y141.201 E21.86766
G1 X87.592 Y140.737 E21.87709
G1 X87.217 Y140.222 E21.88653
G1 X86.91 Y139.665 E21.89595
G1 X86.675 Y139.073 E21.90538
G1 X86.516 Y138.456 E21.91482
G1 X86.435 Y137.824 E21.92426
G1 X86.425 Y137.5 E21.92906
G1 X86.425 Y77.5 E22.81786
G1 X86.465 Y76.864 E22.8273
G1 X86.584 Y76.239 E22.83672
G1 X86.781 Y75.633 E22.84616
G1 X87.052 Y75.057 E22.85559
G1 X87.393 Y74.519 E22.86503
G1 X87.799 Y74.028 E22.87447
M204 S625
M205 X6
G0 F3750 X88.144 Y74.174
M204 S500
M205 X5
G1 F1200 X88.604 Y73.767 E22.88356
G1 X89.113 Y73.422 E22.89267
G1 X89.662 Y73.147 E22.90177
G1 X90.243 Y72.945 E22.91088
G1 X90.844 Y72.821 E22.91997
G1 X91.5 Y72.775 E22.92971
G1 X141.5 Y72.775 E23.67038
G1 X142.113 Y72.815 E23.67948
G1 X142.716 Y72.934 E23.68858
G1 X143.298 Y73.131 E23.69768
G1 X143.85 Y73.401 E23.70679
G1 X144.362 Y73.741 E23.71589
G1 X144.826 Y74.144 E23.725
G1 X145.233 Y74.604 E23.73409
G1 X145.578 Y75.113 E23.7432
G1 X145.853 Y75.662 E23.7523
G1 X146.055 Y76.243 E23.76141
G1 X146.179 Y76.844 E23.7705
G1 X146.225 Y77.5 E23.78024
G1 X146.225 Y137.5 E24.66904
G1 X146.185 Y138.113 E24.67814
G1 X146.066 Y138.716 E24.68725
G1 X145.869 Y139.298 E24.69635
G1 X145.599 Y139.85 E24.70545
G1 X145.259 Y140.362 E24.71455
G1 X144.856 Y140.826 E24.72366
G1 X144.396 Y141.233 E24.73276
G1 X143.887 Y141.578 E24.74187
G1 X143.338 Y141.853 E24.75096
G1 X142.757 Y142.055 E24.76007
G1 X142.156 Y142.179 E24.76916
G1 X141.5 Y142.225 E24.7789
G1 X91.5 Y142.225 E25.51957
G1 X90.887 Y142.185 E25.52867
G1 X90.284 Y142.066 E25.53778
G1 X89.702 Y141.869 E25.54688
G1 X89.15 Y141.599 E25.55598
G1 X88.638 Y141.259 E25.56508
G1 X88.174 Y140.856 E25.57419
G1 X87.767 Y140.396 E25.58329
G1 X87.422 Y139.887 E25.5924
G1 X87.147 Y139.338 E25.60149
G1 X86.945 Y138.757 E25.6106
G1 X86.821 Y138.156 E25.61969
G1 X86.775 Y137.5 E25.62943
G1 X86.775 Y77.5 E26.51823
G1 X86.815 Y76.887 E26.52733
G1 X86.934 Y76.284 E26.53644
G1 X87.131 Y75.702 E26.54554
G1 X87.401 Y75.15 E26.55464
G1 X87.741 Y74.638 E26.56375
G1 X88.144 Y74.174 E26.57285
M204 S625
M205 X6
G0 F3750 X88.488 Y74.327
M204 S500
M205 X5
G1 F1200 X88.944 Y73.95 E26.58162
G1 X89.446 Y73.637 E26.59038
G1 X89.985 Y73.396 E26.59912
G1 X90.553 Y73.229 E26.60789
G1 X91.137 Y73.14 E26.61665
G1 X91.5 Y73.125 E26.62203
G1 X141.5 Y73.125 E27.36269
G1 X142.09 Y73.165 E27.37145
G1 X142.669 Y73.284 E27.38021
G1 X143.227 Y73.48 E27.38897
G1 X143.753 Y73.75 E27.39773
G1 X144.238 Y74.088 E27.40649
G1 X144.673 Y74.488 E27.41524
G1 X145.05 Y74.944 E27.424
G1 X145.363 Y75.446 E27.43277
G1 X145.604 Y75.985 E27.44151
G1 X145.771 Y76.553 E27.45028
G1 X145.86 Y77.137 E27.45903
G1 X145.875 Y77.5 E27.46442
G1 X145.875 Y137.5 E28.35322
G1 X145.835 Y138.09 E28.36198
G1 X145.716 Y138.669 E28.37073
G1 X145.52 Y139.227 E28.37949
G1 X145.25 Y139.753 E28.38825
G1 X144.912 Y140.238 E28.39701
G1 X144.512 Y140.673 E28.40576
G1 X144.056 Y141.05 E28.41453
G1 X143.554 Y141.363 E28.42329
G1 X143.015 Y141.604 E28.43204
G1 X142.447 Y141.771 E28.44081
G1 X141.863 Y141.86 E28.44956
G1 X141.5 Y141.875 E28.45494
G1 X91.5 Y141.875 E29.1956
G1 X90.91 Y141.835 E29.20436
G1 X90.331 Y141.716 E29.21312
G1 X89.773 Y141.52 E29.22188
G1 X89.247 Y141.25 E29.23064
G1 X88.762 Y140.912 E29.2394
G1 X88.327 Y140.512 E29.24815
G1 X87.95 Y140.056 E29.25691
G1 X87.637 Y139.554 E29.26568
G1 X87.396 Y139.015 E29.27442
G1 X87.229 Y138.447 E29.28319
G1 X87.14 Y137.863 E29.29195
G1 X87.125 Y137.5 E29.29733
G1 X87.125 Y77.5 E30.18613
G1 X87.165 Y76.91 E30.19489
G1 X87.284 Y76.331 E30.20364
G1 X87.48 Y75.773 E30.2124
G1 X87.75 Y75.247 E30.22116
G1 X88.088 Y74.762 E30.22992
G1 X88.488 Y74.327 E30.23867
M204 S625
M205 X6
G0 F3750 X88.832 Y74.487
M204 S500
M205 X5
G1 F1200 X89.282 Y74.141 E30.24708
G1 X89.776 Y73.863 E30.25548
G1 X90.304 Y73.657 E30.26387
G1 X90.856 Y73.527 E30.27227
G1 X91.5 Y73.475 E30.28184
G1 X141.5 Y73.475 E31.02251
G1 X142.066 Y73.515 E31.03092
G1 X142.62 Y73.634 E31.03931
G1 X143.152 Y73.83 E31.04771
G1 X143.652 Y74.098 E31.05611
G1 X144.108 Y74.435 E31.06451
G1 X144.513 Y74.832 E31.07291
G1 X144.859 Y75.282 E31.08132
G1 X145.137 Y75.776 E31.08972
G1 X145.343 Y76.304 E31.09811
G1 X145.473 Y76.856 E31.10651
G1 X145.525 Y77.5 E31.11608
G1 X145.525 Y137.5 E32.00488
G1 X145.485 Y138.066 E32.01329
G1 X145.366 Y138.62 E32.02168
G1 X145.17 Y139.152 E32.03008
G1 X144.902 Y139.652 E32.03848
G1 X144.565 Y140.108 E32.04688
G1 X144.168 Y140.513 E32.05528
G1 X143.718 Y140.859 E32.06369
G1 X143.224 Y141.137 E32.07209
G1 X142.696 Y141.343 E32.08049
